workflows/comfyui/luts/Presetpro - Moody Grade.cube
#Created by: Adobe Photoshop Export Color Lookup Plugin
#Copyright: (C) Copyright 2022 Tim Martin and Presetpro.com
TITLE "Presetpro - Moody Grade"
#LUT size
LUT_3D_SIZE 8
#data domain
#LUT data points
DOMAIN_MIN 0.000000 0.000000 0.000000
DOMAIN_MAX 0.903226 0.903226 0.903226
0.000000 0.000000 0.000000
0.075531 0.003937 0.000000
0.196198 0.015686 0.002899
0.377716 0.000000 0.000000
0.578888 0.000000 0.002014
0.768372 0.000000 0.000000
0.919800 0.000000 0.000000
0.996063 0.000000 0.000763
0.003418 0.075531 0.025940
0.066681 0.080963 0.003418
0.204041 0.103485 0.000000
0.384155 0.091217 0.003418
0.583313 0.017700 0.001526
0.762177 0.002014 0.001007
0.908295 0.003937 0.001007
0.999237 0.095245 0.000000
0.003937 0.179504 0.041229
0.008362 0.183411 0.042114
0.175568 0.215820 0.004944
0.397339 0.238831 0.004425
0.581818 0.223633 0.000000
0.763062 0.225677 0.000000
0.908295 0.248322 0.000000
1.000000 0.287262 0.005066
0.000000 0.302582 0.079956
0.002411 0.302582 0.077545
0.128021 0.323212 0.053497
0.339386 0.362030 0.000000
0.581299 0.398224 0.000000
0.757629 0.407562 0.003784
0.898682 0.425415 0.003906
0.997223 0.462097 0.000000
0.002014 0.423798 0.117523
0.000000 0.425690 0.113739
0.126617 0.418854 0.109802
0.299408 0.457550 0.072754
0.506165 0.508057 0.003937
0.734100 0.571442 0.002014
0.878937 0.588501 0.002014
0.997986 0.609772 0.002014
0.000000 0.551300 0.157776
0.034302 0.548035 0.159912
0.175323 0.544983 0.157379
0.303864 0.557770 0.143341
0.480225 0.609619 0.091858
0.654663 0.661102 0.002777
0.849335 0.732208 0.001007
0.975708 0.747009 0.003937
0.135864 0.699707 0.210876
0.185211 0.694885 0.210876
0.259338 0.693634 0.211884
0.353333 0.687286 0.196716
0.487549 0.723114 0.171783
0.639221 0.760651 0.135620
0.785583 0.800385 0.015198
0.951416 0.856689 0.000000
0.334595 0.852997 0.315369
0.347748 0.849457 0.313080
0.398743 0.851624 0.314362
0.466278 0.847565 0.311829
0.555237 0.854889 0.301971
0.659973 0.880829 0.291077
0.781799 0.903870 0.265900
0.905518 0.923584 0.217346
0.010742 0.007843 0.080444
0.080444 0.004425 0.085388
0.207458 0.000000 0.087280
0.385559 0.004822 0.080963
0.584595 0.001526 0.085388
0.768890 0.001404 0.086517
0.917908 0.005066 0.065277
0.999115 0.000366 0.044006
0.006836 0.088287 0.090698
0.073120 0.095642 0.088287
0.206055 0.100555 0.095123
0.393402 0.078033 0.088806
0.590546 0.006439 0.082977
0.770905 0.000000 0.069305
0.913727 0.008362 0.063507
0.996948 0.110809 0.028564
0.001007 0.200623 0.112823
0.053497 0.193298 0.105988
0.189880 0.217834 0.092224
0.399719 0.232513 0.087280
0.592407 0.227051 0.083862
0.764954 0.228210 0.064758
0.910706 0.248322 0.033020
1.000000 0.291962 0.005035
0.003418 0.321289 0.132935
0.010376 0.315369 0.132446
0.167725 0.324219 0.133850
0.354187 0.364929 0.092712
0.585602 0.400726 0.042999
0.756622 0.406555 0.051117
0.900085 0.428467 0.027954
0.997589 0.460968 0.006073
0.000519 0.437469 0.165863
0.032501 0.437958 0.162811
0.169250 0.429230 0.157501
0.321686 0.460480 0.139404
0.516907 0.506653 0.087280
0.736115 0.569031 0.003784
0.874023 0.590546 0.000000
0.993805 0.611786 0.030212
0.041260 0.563568 0.200256
0.113983 0.559143 0.199615
0.210999 0.550415 0.191040
0.322815 0.563568 0.184448
0.486542 0.608246 0.152557
0.668457 0.663147 0.082092
0.855042 0.728271 0.000519
0.975342 0.746643 0.004547
0.173950 0.702484 0.242371
0.208099 0.701477 0.240997
0.283630 0.698547 0.238464
0.368225 0.691986 0.230743
0.490723 0.724365 0.216187
0.636688 0.763702 0.187744
0.788239 0.803436 0.128662
0.953583 0.855804 0.000000
0.346741 0.856415 0.334229
0.370026 0.853394 0.337646
0.402283 0.850464 0.336243
0.465149 0.848572 0.332336
0.556610 0.858063 0.322449
0.670227 0.879822 0.320557
0.783813 0.903992 0.292725
0.904633 0.927399 0.260223
0.000000 0.003021 0.204163
0.090698 0.001526 0.215302
0.218842 0.000000 0.222626
0.395813 0.002411 0.216309
0.588776 0.001892 0.207977
0.773438 0.002533 0.206940
0.917145 0.000000 0.222900
1.000000 0.001007 0.232513
0.003418 0.096130 0.218719
0.076538 0.102478 0.219208
0.228577 0.096130 0.221741
0.406555 0.043152 0.219727
0.597504 0.001892 0.214935
0.773956 0.002014 0.218201
0.918274 0.005554 0.228943
1.000000 0.135620 0.227325
0.000000 0.219727 0.208984
0.085388 0.221252 0.216309
0.231506 0.234406 0.217834
0.419739 0.230469 0.224670
0.600403 0.225677 0.225677
0.770538 0.233521 0.226562
0.910187 0.259186 0.221741
0.996704 0.302704 0.231110
0.111938 0.342438 0.239838
0.176575 0.345856 0.246674
0.238434 0.350159 0.239838
0.386566 0.374176 0.220734
0.596985 0.399750 0.225037
0.759155 0.411499 0.228577
0.900208 0.435150 0.225159
0.996826 0.466034 0.222626
0.161896 0.465027 0.263733
0.182678 0.465912 0.258575
0.260101 0.454163 0.253113
0.364288 0.466919 0.247162
0.546387 0.516022 0.225677
0.739532 0.572449 0.205048
0.878815 0.589783 0.223785
0.992676 0.614685 0.237946
0.186584 0.584076 0.280457
0.218323 0.582153 0.276154
0.282471 0.577240 0.271729
0.356598 0.567505 0.265656
0.505646 0.612152 0.254272
0.675659 0.665039 0.228088
0.855286 0.730804 0.189728
0.975708 0.749542 0.231598
0.242645 0.718170 0.309174
0.266785 0.713593 0.304993
0.327759 0.712341 0.303223
0.403809 0.700958 0.296265
0.502350 0.721954 0.286407
0.645416 0.762573 0.272461
0.793549 0.807343 0.248047
0.956848 0.859589 0.212494
0.368256 0.855408 0.390137
0.390381 0.857819 0.394684
0.428711 0.856934 0.389893
0.483368 0.853394 0.382812
0.557373 0.854004 0.375946
0.663147 0.879822 0.374054
0.785706 0.900574 0.364594
0.906128 0.923462 0.338654
0.002411 0.011780 0.351166
0.061340 0.009735 0.356079
0.233124 0.002899 0.361542
0.422363 0.001526 0.372284
0.602295 0.000519 0.373810
0.778748 0.000000 0.366089
0.920441 0.000000 0.364441
0.994934 0.001526 0.359375
0.001007 0.103973 0.350769
0.064270 0.103485 0.356598
0.244781 0.096130 0.370270
0.431213 0.050079 0.377716
0.606232 0.000519 0.366974
0.776367 0.001404 0.368866
0.920563 0.004944 0.368866
0.999634 0.002014 0.366089
0.002899 0.224152 0.350769
0.055145 0.223267 0.349762
0.255524 0.236420 0.363434
0.442352 0.229584 0.367462
0.613037 0.209473 0.368866
0.778259 0.196808 0.367859
0.918549 0.210114 0.364441
1.000000 0.301208 0.387848
0.095367 0.370758 0.345734
0.176697 0.373169 0.356598
0.300690 0.376190 0.360016
0.435638 0.389496 0.370758
0.616577 0.395813 0.378601
0.769897 0.408722 0.377350
0.901459 0.431732 0.383148
0.997986 0.468414 0.384033
0.275787 0.495911 0.380646
0.301697 0.497803 0.382538
0.377106 0.497803 0.385956
0.437927 0.496277 0.370392
0.573181 0.529297 0.361542
0.748413 0.571045 0.370758
0.885010 0.591919 0.389099
0.995697 0.616852 0.393158
0.350281 0.621002 0.409607
0.373566 0.619476 0.404144
0.377228 0.617462 0.387848
0.445648 0.607727 0.380646
0.533722 0.618500 0.368011
0.697266 0.676788 0.370880
0.862640 0.729156 0.364441
0.974701 0.747009 0.398346
0.335205 0.742432 0.413025
0.348785 0.739807 0.410614
0.388123 0.736755 0.402771
0.447418 0.725250 0.394287
0.522705 0.720947 0.380371
0.653137 0.767120 0.380127
0.801910 0.809753 0.385315
0.955719 0.854523 0.380127
0.418091 0.865143 0.472992
0.429474 0.865662 0.470947
0.460968 0.868195 0.467285
0.508667 0.864380 0.456024
0.570038 0.857452 0.451355
0.671112 0.873505 0.451233
0.786224 0.900452 0.445770
0.908905 0.927887 0.448059
0.000000 0.015686 0.494385
0.048187 0.003937 0.497437
0.248199 0.001007 0.507172
0.442505 0.000000 0.518036
0.627991 0.001892 0.531708
0.780640 0.002014 0.528412
0.917908 0.003937 0.532471
0.994934 0.003937 0.526123
0.002899 0.106018 0.503235
0.084137 0.107910 0.502350
0.266907 0.099030 0.513489
0.456665 0.068542 0.516907
0.638245 0.001526 0.535126
0.779633 0.002533 0.531189
0.922974 0.004425 0.530182
0.997589 0.004303 0.527893
0.001007 0.230621 0.494385
0.123718 0.239349 0.496399
0.285522 0.239319 0.503235
0.465881 0.238312 0.518036
0.635712 0.228577 0.531708
0.783173 0.203644 0.531189
0.915131 0.200226 0.534607
0.998474 0.243500 0.531219
0.052856 0.376190 0.487579
0.161407 0.375305 0.492371
0.295380 0.376190 0.495026
0.462097 0.392395 0.516907
0.632629 0.397827 0.529694
0.780640 0.389984 0.527649
0.907166 0.402771 0.526917
0.998474 0.437286 0.536133
0.257202 0.519928 0.488434
0.295410 0.517914 0.490967
0.383545 0.524872 0.497437
0.493500 0.537018 0.500336
0.619873 0.549164 0.519806
0.761169 0.570923 0.531189
0.886536 0.592560 0.537537
0.997589 0.615204 0.540833
0.396851 0.652771 0.518433
0.418488 0.654419 0.524872
0.471863 0.651367 0.527283
0.539520 0.654785 0.527771
0.590790 0.648987 0.506775
0.715515 0.687164 0.508423
0.864014 0.727386 0.535126
0.970398 0.750275 0.553589
0.458069 0.768127 0.553345
0.471100 0.769012 0.552826
0.510071 0.764069 0.554230
0.533600 0.765106 0.531708
0.585602 0.747375 0.509064
0.666046 0.767120 0.503754
0.810272 0.811279 0.519043
0.954071 0.857819 0.543213
0.521088 0.876923 0.604950
0.519562 0.878937 0.595337
0.517151 0.879974 0.573456
0.547516 0.875793 0.565735
0.595978 0.871094 0.548157
0.675415 0.870605 0.542206
0.785217 0.897919 0.547516
0.910706 0.926392 0.552826
0.000000 0.001404 0.651886
0.129669 0.000000 0.649841
0.304108 0.003937 0.653259
0.483215 0.004303 0.671478
0.657196 0.000000 0.680847
0.806213 0.003937 0.693634
0.918915 0.002533 0.689697
0.996460 0.001404 0.683868
0.027344 0.108795 0.644531
0.161530 0.105865 0.652374
0.322845 0.090179 0.660370
0.492462 0.052612 0.662628
0.662781 0.004547 0.681366
0.802277 0.000000 0.696533
0.920959 0.000519 0.688690
0.996460 0.001007 0.691986
0.105896 0.242249 0.643646
0.195953 0.241882 0.649994
0.335480 0.243256 0.655182
0.501831 0.240356 0.660736
0.661133 0.243896 0.677307
0.804932 0.238586 0.696014
0.911072 0.232758 0.686798
0.994690 0.248810 0.685150
0.099091 0.376190 0.640106
0.196472 0.379120 0.640472
0.340057 0.383179 0.644531
0.500305 0.395935 0.662506
0.653778 0.407562 0.674896
0.790039 0.416931 0.687164
0.905243 0.413788 0.687164
0.998993 0.426941 0.682129
0.211517 0.538147 0.634308
0.266815 0.535126 0.638092
0.358002 0.535126 0.636719
0.472229 0.533722 0.637695
0.631012 0.551941 0.659210
0.770905 0.577362 0.679199
0.889435 0.572571 0.678833
0.993286 0.598999 0.687805
0.375977 0.672882 0.644043
0.398376 0.676788 0.641632
0.458191 0.676941 0.644043
0.546600 0.681091 0.651886
0.641876 0.692993 0.653778
0.746246 0.712097 0.670349
0.868835 0.731689 0.687683
0.976349 0.750305 0.695770
0.521057 0.795074 0.670349
0.530426 0.794434 0.673889
0.561676 0.798859 0.677307
0.612030 0.799377 0.672119
0.671356 0.795959 0.674896
0.706268 0.787231 0.647949
0.827209 0.820496 0.656677
0.955078 0.852875 0.689819
0.573303 0.893738 0.713104
0.583679 0.896515 0.716278
0.603668 0.895508 0.710693
0.633148 0.891968 0.708801
0.663513 0.892609 0.686798
0.707794 0.887299 0.665802
0.785217 0.896515 0.660339
0.912842 0.927277 0.682861
0.195953 0.003052 0.794708
0.261749 0.001404 0.794434
0.386597 0.003052 0.795715
0.535217 0.002411 0.805573
0.687805 0.000885 0.817230
0.823792 0.000000 0.830383
0.934601 0.003937 0.831757
1.000000 0.003052 0.829102
0.223541 0.110443 0.795593
0.289825 0.103088 0.801544
0.403534 0.087646 0.807739
0.542572 0.059082 0.808105
0.686554 0.042633 0.815582
0.822388 0.078949 0.823425
0.941437 0.091980 0.845184
0.996582 0.086029 0.832520
0.248444 0.250214 0.792542
0.300690 0.249084 0.791779
0.414917 0.248199 0.799500
0.548889 0.249573 0.802277
0.688568 0.253265 0.813293
0.817474 0.278809 0.823914
0.924744 0.292480 0.829620
0.998749 0.290070 0.827850
0.224579 0.387085 0.788635
0.298798 0.391113 0.788239
0.412018 0.397980 0.793671
0.540039 0.399719 0.802795
0.675293 0.414154 0.809753
0.803558 0.441467 0.823273
0.914124 0.456787 0.828491
0.995453 0.460327 0.823425
0.203430 0.535614 0.774841
0.259583 0.532074 0.771912
0.369873 0.533722 0.779877
0.502838 0.536499 0.785339
0.651123 0.562073 0.800385
0.782806 0.586609 0.813293
0.894379 0.607361 0.824921
0.993439 0.606720 0.828339
0.327637 0.687683 0.774689
0.354095 0.689941 0.774323
0.419739 0.688690 0.779510
0.508667 0.690216 0.781921
0.614441 0.690582 0.786224
0.753204 0.713226 0.799500
0.874023 0.740295 0.820496
0.976593 0.739166 0.823792
0.474884 0.808228 0.784698
0.490570 0.816071 0.782928
0.528778 0.811279 0.777863
0.597351 0.816071 0.786224
0.671753 0.820892 0.791534
0.754456 0.829224 0.802917
0.855286 0.843536 0.814301
0.956482 0.859711 0.822144
0.628845 0.912964 0.817963
0.643646 0.911713 0.820007
0.661743 0.909668 0.824677
0.689941 0.912079 0.818604
0.729919 0.912079 0.818970
0.783325 0.912598 0.818604
0.809631 0.900818 0.782166
0.916748 0.928284 0.804321
0.367493 0.000000 0.931061
0.406464 0.000519 0.928009
0.488556 0.000000 0.925354
0.601501 0.003540 0.932587
0.719818 0.002014 0.939789
0.837952 0.020752 0.941193
0.942566 0.148773 0.944336
0.992920 0.170288 0.952179
0.382935 0.131042 0.927765
0.419098 0.127258 0.931702
0.501709 0.117401 0.927124
0.607330 0.115631 0.928772
0.717926 0.128265 0.932190
0.836182 0.166473 0.942322
0.939423 0.229492 0.946991
1.000000 0.247559 0.947876
0.391663 0.271332 0.927887
0.426941 0.270844 0.925476
0.505768 0.269196 0.926361
0.606201 0.272858 0.929413
0.723877 0.284760 0.934113
0.831116 0.312714 0.939270
0.938141 0.357483 0.945099
0.997467 0.375061 0.947876
0.379242 0.413513 0.923981
0.415924 0.416046 0.924866
0.488678 0.414917 0.922455
0.597839 0.421356 0.928284
0.705505 0.434662 0.930542
0.812408 0.459564 0.930786
0.919800 0.499542 0.941681
1.000000 0.515106 0.946381
0.315491 0.547394 0.920044
0.358246 0.545868 0.913483
0.442993 0.545990 0.912964
0.562531 0.564606 0.923096
0.676300 0.574341 0.922333
0.796204 0.600403 0.931702
0.899811 0.633667 0.934601
0.990265 0.648468 0.942688
0.319946 0.697540 0.905762
0.341949 0.695526 0.908295
0.405548 0.693115 0.910187
0.515625 0.691101 0.911591
0.638580 0.695404 0.914612
0.760773 0.722473 0.921204
0.879333 0.747894 0.935242
0.973572 0.766602 0.940033
0.444519 0.827850 0.904877
0.461365 0.827850 0.901215
0.499176 0.828857 0.907654
0.563202 0.828339 0.907928
0.639984 0.823792 0.912842
0.730682 0.820007 0.912720
0.852753 0.840485 0.917511
0.960144 0.864136 0.929535
0.582428 0.920807 0.901581
0.590759 0.924469 0.904877
0.616943 0.923737 0.909058
0.656799 0.922852 0.908813
0.718170 0.926636 0.909424
0.786591 0.930817 0.914124
0.856689 0.931702 0.923096
0.940796 0.940430 0.931824
