workflows/comfyui/luts/Presetpro  - Fuji Provia.cube
#Created by: Adobe Photoshop Export Color Lookup Plugin
#Copyright: (C) Copyright 2022 Tim Martin and Presetpro.com
TITLE "Presetpro - Fuji Provia +.jpg"
#LUT size
LUT_3D_SIZE 5
#data domain
#LUT data points
DOMAIN_MIN 0.000000 0.000000 0.000000
DOMAIN_MAX 0.903226 0.903226 0.903226
0.000000 0.000000 0.000000
0.109406 0.011780 0.003052
0.408447 0.000000 0.000000
0.738800 0.000000 0.000000
0.992157 0.010620 0.000366
0.000000 0.124207 0.027466
0.125977 0.158234 0.001770
0.456787 0.144714 0.000885
0.759277 0.138641 0.001251
0.996216 0.269196 0.004425
0.003937 0.385315 0.048828
0.003540 0.376953 0.060211
0.448059 0.467651 0.005676
0.796356 0.506500 0.000000
0.995300 0.553558 0.001770
0.001251 0.651123 0.126892
0.000000 0.643402 0.146484
0.340027 0.671234 0.124237
0.738800 0.780670 0.002655
0.964844 0.828094 0.002655
0.003540 0.916138 0.341309
0.186707 0.913849 0.345856
0.455414 0.912201 0.368134
0.721954 0.935242 0.384827
0.916901 0.956482 0.361664
0.000000 0.000885 0.152557
0.152161 0.000000 0.142548
0.438934 0.000885 0.140411
0.752319 0.000885 0.163055
0.995697 0.118408 0.130646
0.000000 0.153442 0.181763
0.157349 0.169128 0.188721
0.464233 0.176971 0.176086
0.765869 0.189240 0.163422
0.996948 0.293488 0.126862
0.003052 0.428436 0.226562
0.067169 0.420990 0.223633
0.475128 0.479919 0.195679
0.797089 0.510406 0.155212
0.990906 0.566223 0.104584
0.001251 0.679596 0.254517
0.000000 0.673889 0.260223
0.368347 0.676910 0.268066
0.747894 0.781036 0.234161
0.965210 0.824554 0.184174
0.003540 0.923584 0.403412
0.202393 0.920929 0.406433
0.459686 0.916138 0.437073
0.717407 0.933472 0.455780
0.912964 0.960022 0.457550
0.000000 0.000000 0.449829
0.210114 0.000885 0.453735
0.533936 0.003937 0.459045
0.792816 0.002167 0.467285
0.998230 0.120667 0.451599
0.000000 0.128143 0.474609
0.213257 0.139404 0.483337
0.543060 0.142181 0.476013
0.792786 0.249817 0.481201
0.997833 0.300079 0.455505
0.000000 0.467651 0.498657
0.014130 0.481201 0.501190
0.524323 0.516479 0.531799
0.787598 0.529144 0.504730
0.982178 0.580627 0.489044
0.001770 0.740540 0.514343
0.049347 0.741821 0.513092
0.446655 0.728271 0.512939
0.753571 0.794952 0.537872
0.943817 0.825562 0.529144
0.053406 0.938263 0.579254
0.186981 0.932556 0.562805
0.472229 0.926514 0.574554
0.699188 0.929169 0.601257
0.901215 0.963562 0.646149
0.121979 0.002655 0.759796
0.335754 0.000000 0.759277
0.640350 0.000000 0.761932
0.877441 0.001251 0.767639
0.996948 0.304993 0.766357
0.135529 0.051849 0.768890
0.340912 0.011353 0.772430
0.641602 0.001770 0.774078
0.873383 0.111298 0.779633
0.989624 0.442505 0.777985
0.000885 0.411865 0.787994
0.004425 0.408813 0.786743
0.577850 0.456787 0.791901
0.837585 0.524323 0.794067
0.946503 0.675140 0.808502
0.002655 0.767487 0.786987
0.002655 0.771423 0.790894
0.460693 0.786224 0.801025
0.767487 0.824921 0.823792
0.910675 0.831116 0.805817
0.004791 0.957001 0.793701
0.040924 0.955719 0.783051
0.483490 0.948273 0.791931
0.702454 0.935242 0.786224
0.884247 0.959656 0.831512
0.523987 0.000000 0.976105
0.611755 0.000000 0.975464
0.789856 0.000366 0.974945
0.974213 0.000885 0.970154
0.999237 0.151947 0.966370
0.512726 0.002655 0.975708
0.595459 0.004425 0.973419
0.782043 0.000885 0.973572
0.960907 0.002655 0.968384
0.999634 0.338531 0.967865
0.362854 0.375336 0.975708
0.490967 0.382629 0.974579
0.714722 0.390625 0.971771
0.915649 0.449432 0.968353
0.999634 0.602020 0.959656
0.003052 0.723999 0.962311
0.001251 0.720428 0.968506
0.456787 0.717926 0.960022
0.799255 0.768890 0.954346
0.934204 0.830231 0.954834
0.000000 0.960022 0.959259
0.214417 0.958374 0.950928
0.500427 0.956116 0.950409
0.722198 0.956604 0.950409
0.905518 0.968262 0.964325
