workflows/comfyui/luts/Presetpro  - Fuji Provia.cube
#Created by: Adobe Photoshop Export Color Lookup Plugin
#Copyright: (C) Copyright 2022 Tim Martin and Presetpro.com
TITLE "Presetpro - Fuji Provia +.jpg"
#LUT size
LUT_3D_SIZE 32
#data domain
DOMAIN_MIN 0.0 0.0 0.0
DOMAIN_MAX 1.0 1.0 1.0
#LUT data points
0.000000 0.000000 0.000000
0.000244 0.000000 0.000122
0.012512 0.007843 0.000000
0.028198 0.007477 0.000000
0.044159 0.011261 0.000000
0.067932 0.012390 0.000641
0.083862 0.012512 0.000000
0.109406 0.011780 0.003052
0.137360 0.013794 0.000000
0.176575 0.005585 0.000000
0.221985 0.000000 0.000000
0.261841 0.002533 0.000000
0.310150 0.000000 0.000000
0.362793 0.000000 0.001648
0.408447 0.000000 0.000000
0.462341 0.003937 0.005829
0.506287 0.002014 0.003937
0.556244 0.003937 0.000000
0.605835 0.000000 0.002289
0.657562 0.000000 0.008728
0.698944 0.000000 0.003937
0.738800 0.000000 0.000000
0.786469 0.002777 0.002777
0.822388 0.001007 0.000000
0.866180 0.003052 0.003052
0.901337 0.000000 0.000000
0.941315 0.000000 0.003296
0.978363 0.003937 0.003937
0.992157 0.010620 0.000366
1.000000 0.098663 0.007599
0.996063 0.159912 0.003784
0.996063 0.207855 0.003937
0.000000 0.008087 0.003784
0.004059 0.011902 0.000000
0.016327 0.012024 0.000000
0.031891 0.019867 0.000366
0.040863 0.020233 0.003540
0.060730 0.023163 0.003418
0.082855 0.020996 0.000641
0.122314 0.022003 0.006195
0.145477 0.019867 0.001251
0.183289 0.014557 0.000000
0.224915 0.005585 0.000000
0.276001 0.000122 0.001251
0.318756 0.002411 0.000000
0.362793 0.000000 0.001648
0.418457 0.000000 0.003937
0.464752 0.000000 0.003784
0.510468 0.000122 0.003784
0.561951 0.002167 0.000000
0.607483 0.001648 0.000000
0.649994 0.003937 0.000000
0.698822 0.002411 0.000000
0.745239 0.003784 0.000000
0.782684 0.001251 0.000122
0.826080 0.002899 0.000000
0.863251 0.000122 0.000885
0.902985 0.001648 0.001648
0.942566 0.000000 0.003296
0.977875 0.003418 0.003418
0.999634 0.035675 0.000244
1.000000 0.115875 0.000519
0.992279 0.179504 0.000000
0.996216 0.219849 0.003937
0.000244 0.016693 0.000244
0.004059 0.023773 0.007843
0.019867 0.024292 0.004181
0.035034 0.024292 0.003937
0.048065 0.028198 0.003937
0.064148 0.027832 0.000000
0.090057 0.028198 0.000763
0.116364 0.034668 0.006317
0.147980 0.027191 0.003418
0.188873 0.026306 0.000000
0.229584 0.011505 0.004944
0.270172 0.002777 0.000000
0.319641 0.002411 0.002655
0.369232 0.005066 0.000000
0.418457 0.000244 0.000000
0.468414 0.002014 0.000000
0.514130 0.000000 0.000000
0.562195 0.001892 0.000000
0.607483 0.001648 0.005310
0.654053 0.001770 0.003662
0.698944 0.002289 0.000244
0.745117 0.003662 0.002411
0.783936 0.000244 0.000244
0.826324 0.002899 0.000000
0.863373 0.005829 0.000000
0.902344 0.001007 0.000244
0.942566 0.000000 0.000000
0.978119 0.003937 0.003174
0.998871 0.064758 0.006836
1.000000 0.139404 0.000244
0.995941 0.187988 0.000000
1.000000 0.232117 0.003937
0.000000 0.039581 0.008209
0.000244 0.039459 0.008087
0.015320 0.036041 0.008087
0.031006 0.043884 0.015320
0.054779 0.048065 0.000366
0.069061 0.044281 0.001129
0.089691 0.047424 0.001129
0.125092 0.043884 0.008362
0.161285 0.040344 0.000000
0.193909 0.039581 0.000366
0.234894 0.029999 0.004303
0.281464 0.018982 0.002899
0.325989 0.007080 0.000000
0.372284 0.001648 0.004791
0.426300 0.003937 0.000000
0.472076 0.004059 0.000763
0.518433 0.002258 0.000000
0.566254 0.000366 0.000366
0.617615 0.000000 0.007843
0.657959 0.000000 0.003540
0.704254 0.000000 0.000000
0.750824 0.000000 0.000000
0.787598 0.003937 0.002777
0.825317 0.002899 0.005066
0.871490 0.000366 0.002655
0.903992 0.000000 0.001129
0.938263 0.004669 0.000000
0.983948 0.034790 0.009857
0.998871 0.109436 0.003174
1.000000 0.164337 0.007080
0.996216 0.208221 0.003937
0.996460 0.248199 0.004303
0.003418 0.049072 0.016205
0.004425 0.048584 0.016693
0.011780 0.052246 0.019867
0.023010 0.053009 0.019867
0.052002 0.060852 0.016205
0.075775 0.067291 0.014038
0.100555 0.071350 0.006592
0.136627 0.068176 0.001892
0.174072 0.057434 0.006317
0.200745 0.063110 0.003418
0.246552 0.052246 0.002655
0.291687 0.046295 0.002533
0.336090 0.035797 0.000519
0.382904 0.017090 0.000519
0.427155 0.002014 0.000519
0.478546 0.000000 0.000519
0.527771 0.001892 0.000000
0.571167 0.000000 0.001648
0.619232 0.000000 0.003296
0.660980 0.007324 0.000000
0.710846 0.000519 0.001007
0.747650 0.002167 0.000519
0.794312 0.000000 0.002777
0.831146 0.000519 0.004822
0.873627 0.001770 0.000519
0.909698 0.003540 0.000763
0.942566 0.046539 0.000519
0.973053 0.098541 0.000000
0.999634 0.146484 0.001007
0.993683 0.195312 0.000763
1.000000 0.232269 0.003784
1.000000 0.271606 0.007324
0.003296 0.068573 0.018219
0.003296 0.069183 0.016937
0.003784 0.068939 0.016937
0.015808 0.072479 0.021240
0.032379 0.076904 0.013794
0.061981 0.088165 0.015045
0.099304 0.092834 0.003418
0.142059 0.092712 0.003052
0.182404 0.091705 0.001007
0.216827 0.089417 0.004303
0.255280 0.087524 0.007202
0.299561 0.078949 0.000763
0.341919 0.075531 0.003296
0.386322 0.064636 0.001007
0.438049 0.051849 0.002777
0.483978 0.032623 0.000000
0.531830 0.015411 0.000000
0.579407 0.007721 0.000641
0.624420 0.002533 0.002258
0.664917 0.001526 0.000641
0.714630 0.000000 0.006592
0.757141 0.001251 0.003296
0.797607 0.003784 0.003296
0.835815 0.006958 0.002258
0.869568 0.029083 0.000641
0.909943 0.074371 0.004059
0.942566 0.114990 0.000000
0.975067 0.150787 0.000000
1.000000 0.186218 0.002899
0.996948 0.221741 0.000244
0.996216 0.257568 0.000000
1.000000 0.293365 0.003296
0.003174 0.097137 0.023529
0.003174 0.096405 0.025055
0.000000 0.093994 0.020355
0.003174 0.097137 0.017212
0.012268 0.101074 0.010376
0.050995 0.109406 0.017090
0.084625 0.119934 0.011017
0.142548 0.129272 0.003052
0.185181 0.124603 0.000244
0.224762 0.120667 0.000366
0.272736 0.118011 0.000763
0.309906 0.115997 0.000641
0.358124 0.111328 0.000000
0.401123 0.104858 0.000000
0.444885 0.100830 0.006836
0.489807 0.097137 0.004669
0.539673 0.087524 0.005066
0.580902 0.075897 0.000000
0.628601 0.069550 0.002289
0.670868 0.063232 0.000000
0.718536 0.057922 0.003174
0.761688 0.067047 0.003174
0.798615 0.077148 0.001526
0.842010 0.090302 0.005310
0.875641 0.111694 0.001526
0.915375 0.137115 0.000763
0.946503 0.173187 0.000000
0.975708 0.197845 0.004425
0.996063 0.228973 0.001129
0.995819 0.257935 0.000000
0.999878 0.286652 0.000000
0.999237 0.322205 0.000000
0.000000 0.124207 0.027466
0.000000 0.124207 0.030487
0.003937 0.125092 0.028320
0.003937 0.125092 0.028320
0.000885 0.131683 0.024292
0.027313 0.132935 0.028961
0.069183 0.145355 0.014923
0.125977 0.158234 0.001770
0.187195 0.165344 0.004791
0.236908 0.160645 0.000000
0.278168 0.168365 0.003418
0.326630 0.156219 0.003052
0.367706 0.157623 0.000885
0.413147 0.153442 0.000000
0.456787 0.144714 0.000885
0.497375 0.141541 0.002014
0.544495 0.140533 0.001892
0.592041 0.136475 0.000000
0.631897 0.133087 0.000885
0.671753 0.133209 0.000885
0.712463 0.134216 0.001648
0.759277 0.138641 0.001251
0.799133 0.145081 0.000000
0.843903 0.154205 0.000885
0.875793 0.176971 0.007355
0.911072 0.195953 0.001526
0.946747 0.214935 0.000885
0.981415 0.242493 0.002533
0.996216 0.269196 0.004425
0.992676 0.293854 0.000000
0.996063 0.325348 0.000000
0.999115 0.353424 0.000000
0.002899 0.163818 0.027466
0.000000 0.160889 0.024536
0.000000 0.159882 0.023529
0.000366 0.157623 0.029999
0.000519 0.156464 0.028473
0.003540 0.165070 0.020355
0.048309 0.176331 0.017578
0.109039 0.178619 0.009735
0.155212 0.197205 0.004944
0.231354 0.204163 0.002777
0.288788 0.215546 0.005585
0.333191 0.203156 0.000000
0.380249 0.203033 0.002411
0.424286 0.199860 0.002899
0.465759 0.193542 0.002167
0.504578 0.190369 0.000000
0.554352 0.186462 0.002014
0.596100 0.188232 0.000000
0.643402 0.185455 0.002899
0.680725 0.185059 0.000000
0.721069 0.188995 0.000000
0.763336 0.194031 0.000000
0.806091 0.202026 0.000000
0.846832 0.214905 0.002014
0.877808 0.226929 0.004059
0.915771 0.243011 0.000000
0.946503 0.261719 0.002289
0.981293 0.282990 0.011139
0.995697 0.306244 0.000366
0.998474 0.331055 0.000000
0.999878 0.357605 0.000000
1.000000 0.385437 0.000000
0.001129 0.195557 0.024658
0.000000 0.196716 0.030487
0.000000 0.191132 0.029724
0.000000 0.193542 0.034912
0.002777 0.189880 0.034668
0.000000 0.195068 0.035309
0.016815 0.204559 0.025543
0.081207 0.210480 0.010986
0.140778 0.227295 0.001007
0.209076 0.237061 0.000000
0.282593 0.255005 0.002655
0.343048 0.256653 0.000000
0.391754 0.252350 0.000000
0.433502 0.251221 0.000000
0.479919 0.247559 0.002167
0.522308 0.247314 0.002014
0.562561 0.238953 0.001892
0.604462 0.235413 0.000000
0.651764 0.240479 0.000000
0.692871 0.238190 0.002258
0.731201 0.240479 0.003662
0.771179 0.246033 0.000000
0.809998 0.253876 0.000000
0.851501 0.266907 0.002777
0.884399 0.276764 0.000000
0.918549 0.291199 0.001129
0.947632 0.307526 0.002167
0.978363 0.325745 0.002777
0.992920 0.347992 0.002777
1.000000 0.369629 0.000244
1.000000 0.395050 0.000000
0.996063 0.421356 0.001129
0.001251 0.228577 0.027466
0.001129 0.231354 0.030121
0.000000 0.230865 0.028961
0.000000 0.227173 0.029968
0.001251 0.231232 0.039215
0.000641 0.229218 0.035919
0.000763 0.237183 0.028961
0.057068 0.244629 0.018738
0.119293 0.260712 0.004669
0.183411 0.267670 0.000122
0.259827 0.284607 0.001251
0.331421 0.298157 0.002533
0.396057 0.303223 0.002899
0.444763 0.302582 0.002289
0.488525 0.295990 0.000000
0.536102 0.296509 0.000000
0.572327 0.291962 0.001251
0.618988 0.291687 0.000885
0.656830 0.290161 0.004700
0.695648 0.288544 0.004181
0.734222 0.288544 0.002655
0.777863 0.296509 0.003784
0.810120 0.305756 0.002777
0.845917 0.313843 0.001251
0.884003 0.326111 0.001770
0.917908 0.337494 0.000763
0.952454 0.354706 0.000000
0.979767 0.367859 0.000000
0.998749 0.388458 0.000366
0.993927 0.407074 0.002411
1.000000 0.430725 0.000122
0.998749 0.450836 0.001251
0.003937 0.265778 0.031372
0.003784 0.265900 0.031372
0.000000 0.269684 0.032776
0.000000 0.267151 0.037842
0.005066 0.267914 0.037201
0.003296 0.264008 0.046417
0.003296 0.267273 0.039856
0.019867 0.278809 0.033508
0.100952 0.288544 0.014282
0.165466 0.299652 0.002777
0.232117 0.321686 0.000000
0.301300 0.329895 0.002777
0.378082 0.346741 0.000000
0.447021 0.359619 0.003937
0.496490 0.353058 0.000366
0.546082 0.345581 0.002533
0.583557 0.343048 0.003937
0.625702 0.341675 0.001770
0.665405 0.344452 0.001648
0.700714 0.343048 0.002777
0.740936 0.340515 0.000000
0.780670 0.343048 0.000000
0.815308 0.355072 0.002808
0.854797 0.364044 0.001404
0.890594 0.372162 0.001648
0.921448 0.382904 0.003540
0.949799 0.395813 0.001404
0.976990 0.412628 0.001404
0.997467 0.430725 0.002533
0.999756 0.445923 0.000244
0.997589 0.467804 0.001404
0.997467 0.487915 0.002533
0.002411 0.310425 0.039215
0.000000 0.308014 0.036804
0.000000 0.308289 0.036804
0.000000 0.306763 0.042389
0.002411 0.302704 0.043518
0.000641 0.306244 0.053772
0.000000 0.304871 0.055664
0.003052 0.307129 0.038696
0.074524 0.324707 0.024536
0.149506 0.332672 0.010254
0.210754 0.347595 0.000000
0.282471 0.362793 0.004303
0.358124 0.376190 0.003021
0.427551 0.393768 0.001526
0.499146 0.403015 0.001770
0.552399 0.400726 0.000366
0.594971 0.400360 0.002533
0.633667 0.397552 0.001770
0.673492 0.390991 0.004059
0.714630 0.396423 0.000000
0.747498 0.392029 0.000000
0.784943 0.397583 0.001526
0.816589 0.406830 0.000000
0.850983 0.410095 0.001526
0.886658 0.417572 0.000000
0.917786 0.432739 0.000000
0.949799 0.444397 0.000000
0.978363 0.457550 0.000000
0.996063 0.469574 0.000000
0.997833 0.487152 0.002167
0.996216 0.503845 0.004700
0.992767 0.526733 0.000000
0.000000 0.345459 0.043152
0.002289 0.347748 0.045532
0.000000 0.345459 0.044769
0.000000 0.345459 0.044769
0.000000 0.346100 0.046417
0.006195 0.339905 0.054260
0.006317 0.341553 0.060455
0.000000 0.343048 0.057068
0.039337 0.349396 0.041870
0.125854 0.365051 0.027954
0.195923 0.377228 0.011627
0.262878 0.390381 0.001648
0.326355 0.411224 0.003937
0.395813 0.421600 0.001648
0.471710 0.436035 0.000122
0.548981 0.453247 0.002777
0.605316 0.454620 0.001648
0.645691 0.454620 0.000519
0.681366 0.450714 0.000641
0.716400 0.446777 0.003174
0.752197 0.454865 0.001648
0.793060 0.453369 0.001648
0.823395 0.458038 0.003937
0.855164 0.460815 0.004303
0.889191 0.462982 0.002289
0.920807 0.474884 0.001526
0.950409 0.489288 0.003937
0.977234 0.499023 0.000000
0.997589 0.513336 0.003540
1.000000 0.527252 0.002014
0.998352 0.545197 0.002411
0.996063 0.563416 0.001648
0.003937 0.385315 0.048828
0.003937 0.385315 0.049072
0.003937 0.385315 0.056671
0.001770 0.381378 0.058044
0.000000 0.383545 0.054901
0.004944 0.381378 0.058960
0.002167 0.383148 0.068420
0.003540 0.376953 0.060211
0.008728 0.380615 0.059326
0.095245 0.394684 0.050476
0.170502 0.410095 0.018219
0.235779 0.427704 0.007080
0.306610 0.439453 0.000000
0.378235 0.451324 0.001648
0.448059 0.467651 0.005676
0.521942 0.487518 0.002289
0.596863 0.505096 0.001770
0.647430 0.510406 0.001770
0.687561 0.504852 0.003540
0.722473 0.504730 0.000641
0.760529 0.507874 0.001404
0.796356 0.506500 0.000000
0.829987 0.508270 0.000000
0.866547 0.516235 0.001770
0.889709 0.515594 0.000000
0.921082 0.522186 0.000000
0.950806 0.533051 0.003296
0.973694 0.541656 0.001770
0.995300 0.553558 0.001770
0.999756 0.567474 0.000000
1.000000 0.579102 0.004181
0.996063 0.597076 0.002167
0.000000 0.423248 0.056793
0.000000 0.423401 0.057037
0.000000 0.419220 0.060730
0.000000 0.417297 0.061462
0.000519 0.417816 0.061218
0.003296 0.418701 0.068054
0.004303 0.417450 0.079956
0.002777 0.406677 0.079193
0.000000 0.414520 0.078186
0.070312 0.424408 0.067291
0.159607 0.436157 0.049591
0.226562 0.452484 0.026428
0.289185 0.465881 0.004669
0.356476 0.483734 0.000000
0.429962 0.495605 0.000000
0.493835 0.515350 0.002014
0.567535 0.531311 0.001892
0.636841 0.551178 0.002014
0.695007 0.560242 0.001648
0.733459 0.559875 0.000000
0.770264 0.557617 0.000641
0.800751 0.560394 0.000000
0.828735 0.556458 0.000000
0.862610 0.565308 0.001007
0.889709 0.566193 0.000000
0.918549 0.576569 0.000000
0.946625 0.577454 0.000000
0.970001 0.587341 0.001892
0.993683 0.595306 0.003784
1.000000 0.608978 0.001892
1.000000 0.619080 0.001892
1.000000 0.634888 0.004059
0.002014 0.460999 0.074524
0.002014 0.457184 0.068817
0.002014 0.457184 0.068817
0.002014 0.456818 0.073364
0.003540 0.453644 0.078705
0.001404 0.453918 0.080597
0.001282 0.452515 0.087677
0.003784 0.449341 0.090210
0.002045 0.445435 0.099213
0.038147 0.454285 0.086273
0.139099 0.463654 0.078705
0.207550 0.482635 0.059601
0.274719 0.494507 0.023315
0.340393 0.509827 0.002289
0.406036 0.527008 0.000000
0.470062 0.543335 0.000275
0.539673 0.559021 0.002014
0.609253 0.583069 0.000000
0.676941 0.598999 0.000519
0.733978 0.612152 0.003540
0.772064 0.610260 0.000000
0.802795 0.610138 0.000000
0.836945 0.610138 0.000763
0.866547 0.614197 0.001007
0.891602 0.613190 0.002014
0.921326 0.618500 0.000000
0.945862 0.627228 0.000000
0.967987 0.634552 0.000000
0.992523 0.639984 0.002014
0.999756 0.651123 0.000000
0.997833 0.658966 0.000122
1.000000 0.670868 0.002014
0.000000 0.497040 0.080597
0.002167 0.494904 0.080597
0.001770 0.490967 0.082733
0.003937 0.493134 0.084900
0.000000 0.493134 0.091949
0.003937 0.493134 0.088440
0.001770 0.489563 0.095642
0.000885 0.486176 0.100189
0.002899 0.483643 0.110168
0.011230 0.484253 0.104889
0.115082 0.493866 0.098450
0.193634 0.507416 0.082123
0.260559 0.519287 0.057068
0.323944 0.538513 0.032898
0.384521 0.551575 0.003326
0.451813 0.569000 0.001892
0.517151 0.585205 0.001770
0.585083 0.609009 0.002167
0.648590 0.624542 0.002167
0.711456 0.646820 0.000000
0.770905 0.657837 0.003540
0.809387 0.660889 0.000000
0.838196 0.657837 0.000000
0.870483 0.658203 0.000000
0.892365 0.662140 0.002167
0.918549 0.665680 0.000000
0.943207 0.669983 0.000000
0.966736 0.674774 0.000000
0.987488 0.684509 0.000000
0.997345 0.688568 0.002167
1.000000 0.694885 0.002167
1.000000 0.700958 0.001770
0.000000 0.532318 0.088562
0.000000 0.534607 0.092987
0.000000 0.532959 0.091461
0.000000 0.532959 0.096405
0.000000 0.529053 0.102356
0.000000 0.528412 0.097046
0.002411 0.527527 0.107513
0.001404 0.523499 0.117401
0.000000 0.523224 0.111450
0.001129 0.520050 0.116516
0.090027 0.522705 0.115753
0.182617 0.533722 0.104248
0.244263 0.548767 0.088440
0.305603 0.566986 0.065308
0.370880 0.582916 0.037354
0.430450 0.597595 0.003052
0.497559 0.615082 0.000000
0.563446 0.630768 0.000000
0.627075 0.648987 0.000000
0.686920 0.672760 0.002289
0.753204 0.688446 0.002289
0.802277 0.700714 0.000366
0.836945 0.707794 0.007324
0.867554 0.706787 0.005585
0.893616 0.708557 0.001648
0.916901 0.708557 0.002289
0.943848 0.710449 0.002289
0.961548 0.717285 0.000519
0.981659 0.720459 0.000366
0.996979 0.726501 0.000000
1.000000 0.736633 0.004547
1.000000 0.744720 0.002289
0.000000 0.570404 0.105896
0.005432 0.571289 0.108276
0.003937 0.569794 0.106781
0.005432 0.570557 0.107910
0.004425 0.561554 0.114227
0.003052 0.563202 0.111328
0.001526 0.565735 0.113098
0.003021 0.564972 0.117645
0.002411 0.557526 0.118652
0.001129 0.558411 0.130310
0.070557 0.559906 0.138763
0.163025 0.566376 0.124634
0.234772 0.578247 0.114624
0.298523 0.594940 0.101196
0.362030 0.608612 0.076172
0.416809 0.627197 0.041016
0.479980 0.644165 0.005188
0.541565 0.662262 0.001526
0.608002 0.676819 0.002289
0.665405 0.694397 0.002411
0.727142 0.714233 0.002411
0.778870 0.730194 0.004822
0.828735 0.747253 0.001526
0.865662 0.749298 0.000519
0.892365 0.749908 0.008118
0.918549 0.748383 0.000000
0.941681 0.753845 0.000000
0.954956 0.757141 0.001007
0.976105 0.756744 0.000000
0.990387 0.764709 0.000000
0.996216 0.770172 0.000000
1.000000 0.774323 0.000000
0.001404 0.606201 0.121582
0.001404 0.611267 0.119049
0.001404 0.608734 0.121338
0.001404 0.608734 0.121338
0.003418 0.604187 0.124359
0.001404 0.606201 0.121582
0.000763 0.606598 0.127777
0.002533 0.604828 0.130554
0.004059 0.602814 0.131561
0.000000 0.598389 0.137878
0.044098 0.595703 0.143585
0.155304 0.595581 0.137909
0.221466 0.611633 0.129700
0.285095 0.626831 0.118134
0.349640 0.637207 0.106781
0.409332 0.658447 0.086548
0.471863 0.670471 0.051758
0.529053 0.686401 0.014404
0.587372 0.704376 0.000000
0.648468 0.722229 0.000000
0.704254 0.738159 0.003937
0.763580 0.754089 0.003937
0.810516 0.772827 0.000244
0.855530 0.780518 0.000000
0.887421 0.788239 0.002533
0.916748 0.790527 0.003174
0.936005 0.793823 0.004547
0.955841 0.789124 0.000519
0.970642 0.794434 0.002533
0.987091 0.799255 0.001129
0.996063 0.803436 0.000122
0.998596 0.803680 0.000000
0.001251 0.651123 0.126892
0.003937 0.651245 0.130798
0.002655 0.652496 0.130798
0.002655 0.651245 0.137390
0.000519 0.648071 0.134735
0.001251 0.641998 0.134735
0.001251 0.646576 0.141418
0.000000 0.643402 0.146484
0.001007 0.642639 0.146881
0.002533 0.640991 0.150146
0.029449 0.638214 0.151550
0.141907 0.634155 0.156860
0.213623 0.643524 0.155487
0.277130 0.659973 0.144867
0.340027 0.671234 0.124237
0.402618 0.684387 0.119049
0.458099 0.698944 0.098816
0.522614 0.720306 0.072479
0.575348 0.730194 0.038330
0.637207 0.747375 0.003662
0.686920 0.765717 0.005066
0.738800 0.780670 0.002655
0.785461 0.791168 0.000000
0.834045 0.805695 0.002655
0.877808 0.817078 0.000000
0.912720 0.824799 0.002655
0.928162 0.821777 0.000000
0.948761 0.824432 0.000519
0.964844 0.828094 0.002655
0.988739 0.830505 0.000244
0.997345 0.830231 0.000000
0.997345 0.832764 0.002655
0.002777 0.689575 0.147888
0.002777 0.689575 0.147888
0.000000 0.692352 0.147888
0.001129 0.692352 0.147888
0.005707 0.683380 0.152954
0.000641 0.689575 0.151306
0.003540 0.686920 0.151550
0.000000 0.685394 0.153564
0.000000 0.687042 0.163574
0.001129 0.678833 0.165741
0.023621 0.677795 0.161041
0.137115 0.676666 0.173065
0.208069 0.675903 0.171783
0.271454 0.691711 0.169769
0.336212 0.703094 0.164581
0.397583 0.716125 0.150421
0.451752 0.730804 0.139038
0.511841 0.743835 0.123352
0.563965 0.759155 0.093353
0.618347 0.774719 0.078308
0.673767 0.789642 0.031128
0.728027 0.802032 0.004669
0.775848 0.813934 0.000000
0.818848 0.826965 0.002777
0.859833 0.834290 0.000000
0.900818 0.846802 0.002777
0.929779 0.851990 0.001770
0.950806 0.854919 0.002777
0.961548 0.854279 0.007477
0.984955 0.852875 0.000519
0.997467 0.856537 0.002777
0.997742 0.859344 0.000000
0.003937 0.733215 0.167603
0.002899 0.732208 0.166595
0.000000 0.736115 0.164581
0.000000 0.737122 0.165588
0.002411 0.734619 0.163696
0.000000 0.729279 0.164948
0.000000 0.729034 0.175079
0.000885 0.729156 0.170380
0.000000 0.729279 0.179382
0.002014 0.726135 0.178253
0.026794 0.724121 0.179901
0.150635 0.716370 0.192047
0.215912 0.719421 0.192047
0.271942 0.728668 0.194702
0.333954 0.736755 0.189636
0.392639 0.748901 0.169647
0.446564 0.761810 0.172302
0.504517 0.774841 0.156097
0.557495 0.785461 0.145233
0.611023 0.801788 0.132721
0.659332 0.811401 0.119415
0.711090 0.826080 0.095642
0.765594 0.837830 0.057068
0.807739 0.845032 0.032013
0.850739 0.854156 0.005829
0.885254 0.861237 0.000000
0.914856 0.874390 0.000000
0.938263 0.881744 0.000000
0.961426 0.883240 0.000000
0.979889 0.879578 0.000000
0.994049 0.879333 0.002899
1.000000 0.877411 0.000000
0.000000 0.772949 0.185577
0.000000 0.772064 0.184692
0.000000 0.772949 0.185577
0.000000 0.772949 0.185577
0.000000 0.775482 0.191284
0.007843 0.769012 0.190765
0.001770 0.768890 0.195068
0.001770 0.771179 0.191284
0.002014 0.769012 0.196198
0.001770 0.770020 0.204041
0.033478 0.765991 0.202026
0.163666 0.762817 0.209381
0.226288 0.758514 0.215424
0.278168 0.760529 0.220367
0.340027 0.768127 0.213806
0.396423 0.783295 0.197235
0.450500 0.789520 0.203033
0.505280 0.805573 0.200378
0.558014 0.813538 0.191650
0.606842 0.825684 0.186218
0.657562 0.837708 0.170654
0.707916 0.843140 0.161041
0.749023 0.856689 0.144470
0.792023 0.863892 0.137146
0.828735 0.876678 0.109680
0.867676 0.880585 0.080109
0.903870 0.891083 0.036438
0.933075 0.896271 0.006073
0.957123 0.902344 0.006073
0.977722 0.903229 0.000244
0.990387 0.903229 0.000763
1.000000 0.903229 0.000000
0.000763 0.815063 0.212646
0.001526 0.815826 0.213409
0.000000 0.815063 0.212646
0.006317 0.811890 0.212646
0.000000 0.813171 0.214691
0.007080 0.811890 0.212646
0.000000 0.811890 0.210236
0.001770 0.811005 0.217590
0.002777 0.807983 0.228607
0.003418 0.807983 0.227966
0.095612 0.802673 0.230988
0.193787 0.801910 0.234406
0.248444 0.801636 0.239227
0.298645 0.800903 0.244019
0.348114 0.802673 0.243011
0.405426 0.815063 0.244537
0.453400 0.822540 0.239716
0.509460 0.833649 0.234283
0.558777 0.840759 0.231628
0.609772 0.851105 0.219604
0.659729 0.862244 0.223022
0.702972 0.867310 0.217072
0.746887 0.875793 0.211151
0.791016 0.886169 0.208618
0.822510 0.894897 0.189392
0.856537 0.902863 0.175079
0.885773 0.903748 0.154358
0.914215 0.913208 0.144348
0.949768 0.919678 0.119568
0.972290 0.923218 0.094666
0.987976 0.923218 0.084137
1.000000 0.920807 0.088959
0.007843 0.851105 0.251129
0.004547 0.849091 0.248444
0.003937 0.848450 0.241241
0.000000 0.852386 0.242004
0.003296 0.849091 0.242249
0.000000 0.852997 0.248444
0.000000 0.851105 0.247192
0.000641 0.849335 0.255280
0.000000 0.846558 0.249481
0.058655 0.850372 0.257935
0.167877 0.843262 0.260223
0.223022 0.844666 0.263641
0.279816 0.841248 0.271973
0.325623 0.840607 0.276917
0.369507 0.840607 0.278564
0.421112 0.847046 0.281097
0.469238 0.855042 0.281219
0.523621 0.861237 0.282501
0.570557 0.868073 0.277283
0.617737 0.872620 0.271362
0.660339 0.886902 0.271240
0.704132 0.894257 0.265411
0.746002 0.898926 0.266174
0.783173 0.906281 0.258972
0.816956 0.907654 0.254669
0.848694 0.918793 0.249725
0.874512 0.922974 0.235443
0.902466 0.934235 0.230377
0.937134 0.931580 0.220764
0.961548 0.939026 0.201660
0.982025 0.936005 0.185455
1.000000 0.939270 0.178009
0.003418 0.887665 0.283234
0.003296 0.887665 0.283112
0.000244 0.887665 0.280090
0.003937 0.888184 0.283752
0.010254 0.877930 0.288177
0.003418 0.887665 0.291718
0.001251 0.884521 0.292847
0.018097 0.882599 0.293732
0.098419 0.881744 0.296509
0.180756 0.885376 0.301575
0.236542 0.881592 0.302460
0.284241 0.879974 0.312073
0.326111 0.880707 0.309814
0.368256 0.876404 0.317413
0.406311 0.873749 0.320801
