workflows/comfyui/luts/Presetpro  - Fuji Provia.cube
#Created by: Adobe Photoshop Export Color Lookup Plugin
#Copyright: (C) Copyright 2022 Tim Martin and Presetpro.com
TITLE "Presetpro - Fuji Provia +.jpg"
#LUT size
LUT_3D_SIZE 8
#data domain
#LUT data points
DOMAIN_MIN 0.000000 0.000000 0.000000
DOMAIN_MAX 0.903226 0.903226 0.903226
0.000000 0.000000 0.000000
0.044159 0.011261 0.000000
0.137360 0.013794 0.000000
0.310150 0.000000 0.000000
0.506287 0.002014 0.003937
0.698944 0.000000 0.003937
0.866180 0.003052 0.003052
0.992157 0.010620 0.000366
0.003418 0.049072 0.016205
0.052002 0.060852 0.016205
0.174072 0.057434 0.006317
0.336090 0.035797 0.000519
0.527771 0.001892 0.000000
0.710846 0.000519 0.001007
0.873627 0.001770 0.000519
0.999634 0.146484 0.001007
0.002899 0.163818 0.027466
0.000519 0.156464 0.028473
0.155212 0.197205 0.004944
0.380249 0.203033 0.002411
0.554352 0.186462 0.002014
0.721069 0.188995 0.000000
0.877808 0.226929 0.004059
0.995697 0.306244 0.000366
0.002411 0.310425 0.039215
0.002411 0.302704 0.043518
0.074524 0.324707 0.024536
0.358124 0.376190 0.003021
0.594971 0.400360 0.002533
0.747498 0.392029 0.000000
0.886658 0.417572 0.000000
0.996063 0.469574 0.000000
0.002014 0.460999 0.074524
0.003540 0.453644 0.078705
0.002045 0.445435 0.099213
0.274719 0.494507 0.023315
0.539673 0.559021 0.002014
0.772064 0.610260 0.000000
0.891602 0.613190 0.002014
0.992523 0.639984 0.002014
0.001404 0.606201 0.121582
0.003418 0.604187 0.124359
0.004059 0.602814 0.131561
0.221466 0.611633 0.129700
0.471863 0.670471 0.051758
0.704254 0.738159 0.003937
0.887421 0.788239 0.002533
0.970642 0.794434 0.002533
0.000000 0.772949 0.185577
0.000000 0.775482 0.191284
0.002014 0.769012 0.196198
0.226288 0.758514 0.215424
0.450500 0.789520 0.203033
0.657562 0.837708 0.170654
0.828735 0.876678 0.109680
0.957123 0.902344 0.006073
0.003540 0.916138 0.341309
0.008453 0.920044 0.335114
0.234039 0.916138 0.355988
0.384552 0.915375 0.359650
0.525879 0.913727 0.385193
0.684265 0.936127 0.386597
0.816956 0.946503 0.392303
0.916901 0.956482 0.361664
0.008362 0.000000 0.064270
0.055908 0.004425 0.071106
0.147247 0.010254 0.055908
0.318909 0.002411 0.061859
0.514618 0.000519 0.060333
0.702362 0.000519 0.045166
0.866180 0.002533 0.002533
0.995453 0.057068 0.006073
0.000000 0.060333 0.072601
0.048065 0.071106 0.073120
0.174194 0.068695 0.073608
0.349243 0.046051 0.069183
0.534760 0.001526 0.058441
0.714752 0.000519 0.031616
0.871216 0.009094 0.002777
0.999634 0.176727 0.000519
0.000000 0.181519 0.096130
0.001007 0.180511 0.090302
0.179108 0.205048 0.080444
0.381744 0.200226 0.063751
0.562073 0.197693 0.038696
0.727386 0.203156 0.005432
0.882233 0.238068 0.000519
0.999115 0.320801 0.006317
0.004944 0.325714 0.113342
0.001007 0.324219 0.120178
0.117249 0.325714 0.121674
0.366455 0.380249 0.063873
0.590271 0.404663 0.001526
0.749939 0.397949 0.003418
0.888184 0.424530 0.004059
0.998352 0.478058 0.000000
0.000000 0.477173 0.133972
0.006195 0.474396 0.140289
0.013519 0.461121 0.143829
0.291443 0.498291 0.132446
0.545746 0.562714 0.030243
0.771423 0.613678 0.005188
0.892975 0.618622 0.001007
0.983551 0.644287 0.002014
0.000000 0.621521 0.172668
0.002014 0.617981 0.180023
0.000519 0.612274 0.184937
0.244507 0.614044 0.194305
0.475403 0.676300 0.151794
0.710205 0.741425 0.053650
0.890320 0.791168 0.005951
0.970276 0.793060 0.002533
0.003418 0.779907 0.222260
0.002258 0.779510 0.228088
0.003784 0.775085 0.243256
0.239441 0.768646 0.248322
0.455444 0.794556 0.247070
0.657837 0.839355 0.226440
0.834656 0.872375 0.198883
0.957886 0.902740 0.147644
0.000885 0.917023 0.362946
0.009613 0.913605 0.362549
0.237823 0.919556 0.373932
0.388855 0.914612 0.389008
0.523346 0.913086 0.404175
0.686279 0.932709 0.412537
0.815704 0.944855 0.414307
0.916016 0.960541 0.404938
0.000000 0.000000 0.194305
0.064270 0.000519 0.184052
0.198212 0.001007 0.188354
0.341034 0.002411 0.181030
0.533722 0.003937 0.175690
0.710693 0.001007 0.187469
0.870972 0.001007 0.190247
0.997101 0.140930 0.182922
0.003418 0.053009 0.211884
0.046661 0.059326 0.208984
0.211487 0.058838 0.202148
0.363922 0.068176 0.202637
0.550293 0.002533 0.196320
0.715637 0.051727 0.208466
0.872620 0.108276 0.199097
0.996948 0.213287 0.186584
0.002899 0.193298 0.224670
0.000000 0.202148 0.228577
0.206055 0.213013 0.221863
0.390503 0.220245 0.227570
0.563080 0.225677 0.215942
0.734100 0.234528 0.204529
0.882599 0.270966 0.199982
0.996704 0.337250 0.180634
0.000000 0.361023 0.235931
0.003937 0.366852 0.246796
0.192169 0.358612 0.251617
0.385559 0.392914 0.234009
0.595459 0.406677 0.221741
0.750305 0.412506 0.215302
0.890961 0.434387 0.195801
0.990753 0.487762 0.179504
0.000000 0.516022 0.266785
0.000519 0.509552 0.257568
0.131531 0.501190 0.260071
0.326233 0.507141 0.265015
0.561035 0.572937 0.240479
0.766602 0.610779 0.217804
0.887665 0.618988 0.196320
0.985443 0.644043 0.173187
0.001404 0.651367 0.282104
0.003540 0.647430 0.279694
0.016541 0.643524 0.290314
0.290436 0.627319 0.293213
0.494385 0.677795 0.289948
0.714874 0.746002 0.266022
0.884399 0.790131 0.238831
0.965210 0.795441 0.221497
0.005829 0.793549 0.315002
0.000000 0.794067 0.315216
0.004059 0.788757 0.331696
0.274506 0.781799 0.332184
0.460114 0.792542 0.337372
0.661499 0.838959 0.342957
0.836304 0.871735 0.331665
0.952301 0.902588 0.327637
0.001007 0.924988 0.419739
0.020233 0.925476 0.424042
0.242126 0.922974 0.422119
0.393158 0.917145 0.441986
0.525635 0.912079 0.457428
0.681366 0.930420 0.473877
0.808105 0.946991 0.479828
0.914124 0.960663 0.479706
0.000000 0.000000 0.366852
0.029083 0.000519 0.363037
0.247284 0.002899 0.365967
0.427795 0.000000 0.366852
0.558258 0.000000 0.346466
0.738159 0.001404 0.364929
0.893616 0.003937 0.347870
0.998871 0.117584 0.359894
0.000000 0.043640 0.374298
0.031494 0.035797 0.383026
0.259949 0.003937 0.384949
0.435028 0.000000 0.375702
0.568512 0.060486 0.367462
0.741699 0.057648 0.376709
0.890198 0.051086 0.364929
0.998871 0.248077 0.377716
0.001007 0.169250 0.399719
0.000000 0.171265 0.395935
0.245148 0.199615 0.398224
0.431732 0.208466 0.384277
0.584320 0.257050 0.398834
0.744598 0.250214 0.385040
0.877930 0.303741 0.385559
0.996063 0.366211 0.387085
0.002411 0.377716 0.409088
0.000000 0.383545 0.408966
0.175690 0.393402 0.414032
0.420868 0.413025 0.424774
0.599884 0.420471 0.425262
0.746124 0.435028 0.409973
0.889069 0.458923 0.399475
0.993683 0.502594 0.383911
0.002411 0.546509 0.410980
0.004791 0.547394 0.411346
0.198730 0.555237 0.420990
0.391510 0.545471 0.430206
0.582703 0.590546 0.430084
0.764465 0.612152 0.423004
0.880707 0.621033 0.404297
0.975189 0.650482 0.396942
0.002411 0.688568 0.436554
0.003418 0.689056 0.438080
0.177155 0.689575 0.438568
0.351654 0.674377 0.431091
0.513367 0.686157 0.438568
0.721191 0.756744 0.445770
0.880219 0.788635 0.443512
0.953583 0.790527 0.428955
0.000000 0.818481 0.456146
0.000000 0.821014 0.450714
0.014648 0.816071 0.437927
0.314331 0.806702 0.446167
0.471985 0.790009 0.454132
0.659210 0.838593 0.474121
0.827209 0.877289 0.486633
0.942047 0.903229 0.497406
0.000366 0.934601 0.506897
0.005951 0.933838 0.506897
0.245911 0.928650 0.513733
0.397461 0.920441 0.520691
0.535492 0.918030 0.532440
0.671234 0.928284 0.551666
0.800751 0.945465 0.572784
0.902863 0.960022 0.584930
0.001892 0.001892 0.543610
0.047058 0.000000 0.541077
0.273865 0.002899 0.547394
0.478943 0.001892 0.540192
0.635681 0.002014 0.537659
0.746887 0.002533 0.519440
0.901337 0.129944 0.569031
0.999634 0.209015 0.563202
0.005432 0.001007 0.554871
0.066162 0.000000 0.553833
0.287384 0.002014 0.553833
0.491821 0.001526 0.557129
0.648987 0.000519 0.558136
0.753204 0.075256 0.542328
0.903503 0.214813 0.573212
0.995575 0.270081 0.562073
0.000000 0.160889 0.562195
0.011505 0.172668 0.563080
0.282745 0.171631 0.568024
0.490051 0.166199 0.570923
0.649231 0.192383 0.568909
0.757751 0.286652 0.565094
0.897552 0.344604 0.580933
0.998993 0.374847 0.568390
0.001892 0.347229 0.581665
0.002014 0.346710 0.591034
0.139404 0.358612 0.586731
0.451233 0.387085 0.593079
0.638092 0.412506 0.592560
0.757751 0.478790 0.600769
0.887665 0.481323 0.586731
0.982056 0.515594 0.576752
0.002014 0.559143 0.594452
0.000000 0.561188 0.591400
0.097229 0.573975 0.594452
0.395447 0.590668 0.606354
0.606079 0.617981 0.618103
0.751160 0.623932 0.615570
0.873749 0.633789 0.599518
0.962677 0.657196 0.582703
0.000000 0.723999 0.584717
0.003296 0.725006 0.592438
0.053436 0.728271 0.593567
0.388336 0.729797 0.602417
0.556000 0.722839 0.603699
0.727264 0.766998 0.623413
0.857178 0.789764 0.625061
0.939545 0.791534 0.605957
0.001007 0.839600 0.595581
0.000519 0.842896 0.604309
0.107971 0.839478 0.593445
0.388977 0.842010 0.608124
0.512238 0.825806 0.596466
0.654388 0.839111 0.606232
0.823792 0.880707 0.643677
0.924347 0.901215 0.656952
0.005585 0.940552 0.640991
0.114929 0.941559 0.639984
0.321167 0.938660 0.650482
0.400116 0.933716 0.626831
0.543976 0.928040 0.643768
0.658722 0.922943 0.647583
0.788483 0.943848 0.675018
0.892853 0.960541 0.695648
0.035461 0.000000 0.713470
0.180542 0.000000 0.721069
0.348511 0.000000 0.718170
0.535736 0.001007 0.723969
0.702881 0.002014 0.719696
0.834808 0.002533 0.725006
0.890442 0.015686 0.681854
0.997101 0.318146 0.738007
0.063660 0.000519 0.727264
0.188354 0.002533 0.720947
0.359528 0.001404 0.730164
0.538635 0.002411 0.724854
0.712097 0.000000 0.723846
0.833405 0.005310 0.727386
0.901215 0.165222 0.706635
0.999237 0.375458 0.750916
0.025848 0.142181 0.734863
0.181793 0.132172 0.727783
0.350769 0.122040 0.730682
0.538116 0.090302 0.737000
0.707153 0.097626 0.738281
0.831390 0.187073 0.739044
0.898804 0.341675 0.720947
0.985077 0.484375 0.756622
0.000000 0.300140 0.740936
0.002777 0.303223 0.748535
0.273407 0.345856 0.749908
0.499939 0.355713 0.751953
0.685669 0.367981 0.748413
0.813049 0.415558 0.745636
0.885651 0.519653 0.745117
0.960266 0.602417 0.769897
0.002533 0.531830 0.750427
0.001526 0.535492 0.755096
0.019958 0.538147 0.758148
0.368988 0.546387 0.756866
0.622284 0.580292 0.762177
0.783417 0.616089 0.766479
0.860474 0.690460 0.779144
0.942566 0.698059 0.765106
0.000000 0.733093 0.748779
0.000000 0.731445 0.755096
0.000000 0.739288 0.755219
0.350647 0.743958 0.767120
0.570404 0.763062 0.773682
0.739777 0.789124 0.790527
0.837189 0.794434 0.777618
0.918671 0.799377 0.766602
0.003418 0.870850 0.754211
0.003540 0.870972 0.748535
0.003143 0.868958 0.748413
0.343292 0.866547 0.745483
0.554962 0.863129 0.756866
0.693756 0.858185 0.759796
0.812531 0.891479 0.786865
0.901703 0.905121 0.789124
0.001770 0.952576 0.759399
0.000885 0.954346 0.758636
0.192017 0.950287 0.755219
0.404785 0.947876 0.758270
0.576233 0.941925 0.768890
0.675018 0.935486 0.758759
0.777740 0.939545 0.771545
0.883606 0.960419 0.806213
0.309692 0.003937 0.874023
0.360046 0.002533 0.871246
0.475159 0.000885 0.868835
0.617950 0.000000 0.870972
0.765228 0.002014 0.867188
0.901337 0.000000 0.867950
0.979889 0.003052 0.870972
0.999634 0.238464 0.839722
0.314484 0.000000 0.874023
0.366882 0.003418 0.867950
0.476654 0.001404 0.869843
0.619965 0.000000 0.872864
0.770660 0.003052 0.874512
0.902496 0.002533 0.870087
0.978516 0.000000 0.880981
0.994446 0.306519 0.840607
0.296661 0.042084 0.876801
0.356354 0.021973 0.874146
0.468048 0.005035 0.877808
0.611755 0.000885 0.880219
0.755493 0.002777 0.873016
0.886536 0.041718 0.869965
0.969910 0.239716 0.875793
0.984833 0.433014 0.848846
0.157074 0.303223 0.878418
0.273010 0.308899 0.879211
0.414551 0.312439 0.885132
0.574463 0.311920 0.882751
0.733734 0.323181 0.883514
0.869965 0.360626 0.878815
0.943970 0.450439 0.882477
0.962952 0.580383 0.854156
0.001770 0.491486 0.876648
0.002411 0.491119 0.879333
0.067352 0.481750 0.877808
0.457123 0.512451 0.878448
0.664886 0.537659 0.879822
0.821381 0.571930 0.882751
0.906128 0.633667 0.878815
0.930817 0.726379 0.870850
0.006073 0.705780 0.878815
0.003052 0.704254 0.876801
0.003540 0.705750 0.879822
0.324829 0.707153 0.882599
0.550812 0.721466 0.884003
0.749023 0.754730 0.880219
0.854645 0.791656 0.887054
0.902588 0.843903 0.893616
0.000000 0.864014 0.867950
0.000000 0.870972 0.871857
0.002899 0.867065 0.869965
0.346100 0.870972 0.873627
0.552460 0.873749 0.877808
0.709564 0.882599 0.887543
0.825684 0.904999 0.894501
0.888672 0.907532 0.890198
0.007324 0.966614 0.874512
0.005585 0.966095 0.867432
0.064240 0.963074 0.868683
0.368744 0.960541 0.874512
0.548767 0.958252 0.869446
0.691711 0.955231 0.874756
0.781677 0.946991 0.867798
0.888947 0.960419 0.894501
0.523987 0.000000 0.976105
0.562439 0.000000 0.971802
0.634277 0.000000 0.975342
0.734711 0.000000 0.973816
0.844177 0.000000 0.969391
0.952698 0.000000 0.971161
0.999634 0.000885 0.965454
0.999237 0.151947 0.966370
0.526764 0.003540 0.971405
0.555084 0.000885 0.972290
0.622375 0.001007 0.968628
0.727509 0.003540 0.979523
0.844543 0.000366 0.976593
0.949921 0.005066 0.972809
0.997101 0.000885 0.972046
0.999634 0.235168 0.965332
0.509064 0.002533 0.976349
0.543213 0.000000 0.974945
0.622009 0.002533 0.973816
0.723602 0.000366 0.971924
0.833160 0.000366 0.967865
0.934235 0.000000 0.965088
0.998993 0.191010 0.966614
0.998993 0.374695 0.966217
0.448853 0.269684 0.970001
0.485657 0.267395 0.972290
0.571808 0.263733 0.973328
0.687805 0.267395 0.975189
0.803192 0.273743 0.976105
0.910828 0.324341 0.966492
0.988770 0.411224 0.965973
0.998108 0.526489 0.954590
0.043549 0.427460 0.976990
0.195862 0.440613 0.970520
0.413116 0.465912 0.971313
0.589600 0.494019 0.971893
0.734741 0.504395 0.969666
0.866913 0.534760 0.968506
0.945496 0.598267 0.966736
0.984924 0.676056 0.952057
0.000000 0.673401 0.962433
0.000885 0.670471 0.967499
0.006561 0.670105 0.962799
0.374298 0.661621 0.968872
0.615936 0.681610 0.957123
0.789001 0.722992 0.961548
0.890686 0.756866 0.953339
0.946747 0.804810 0.950653
0.004791 0.851746 0.952179
0.003540 0.851227 0.959015
0.003021 0.849335 0.954956
0.342682 0.852386 0.951538
0.536011 0.850220 0.953583
0.691986 0.854279 0.956757
0.829224 0.879211 0.952179
0.912964 0.904114 0.955597
0.000000 0.960022 0.959259
0.008331 0.959259 0.945862
0.256927 0.958649 0.955109
0.426422 0.952576 0.947754
0.572449 0.955719 0.953308
0.696777 0.957642 0.952576
0.795685 0.959137 0.956726
0.905518 0.968262 0.964325
