workflows/comfyui/luts/Presetpro - Moody Grade.cube
#Created by: Adobe Photoshop Export Color Lookup Plugin
#Copyright: (C) Copyright 2022 Tim Martin and Presetpro.com
TITLE "Presetpro - Moody Grade"
#LUT size
LUT_3D_SIZE 32
#data domain
DOMAIN_MIN 0.0 0.0 0.0
DOMAIN_MAX 1.0 1.0 1.0
#LUT data points
0.000000 0.000000 0.000000
0.008209 0.003937 0.000000
0.032135 0.000244 0.000000
0.055267 0.000000 0.000000
0.075531 0.003937 0.000000
0.104492 0.007843 0.000000
0.129272 0.008606 0.000763
0.167358 0.015686 0.003052
0.196198 0.015686 0.002899
0.233124 0.010620 0.000000
0.282074 0.002655 0.000000
0.329895 0.002533 0.001404
0.377716 0.000000 0.000000
0.433380 0.000000 0.000000
0.481201 0.000000 0.003937
0.532806 0.002014 0.003937
0.578888 0.000000 0.002014
0.630768 0.000000 0.000000
0.675781 0.001648 0.000000
0.722717 0.001526 0.002411
0.768372 0.000000 0.000000
0.807983 0.000000 0.001251
0.845306 0.001129 0.000000
0.881226 0.000000 0.005829
0.919800 0.000000 0.000000
0.945984 0.003937 0.000763
0.981171 0.000641 0.003937
0.996063 0.003418 0.000000
0.996063 0.000000 0.000763
0.996063 0.000000 0.000000
0.996063 0.000000 0.000244
1.000000 0.054901 0.007843
0.000000 0.015808 0.000000
0.008087 0.016052 0.003784
0.032135 0.019745 0.000122
0.055420 0.019623 0.000000
0.076019 0.024292 0.000122
0.104370 0.027954 0.003937
0.129272 0.031616 0.000000
0.165710 0.035675 0.000000
0.193420 0.037567 0.001129
0.240967 0.026581 0.000000
0.279541 0.023773 0.000122
0.332550 0.014435 0.000000
0.380127 0.002411 0.002411
0.433502 0.000122 0.000122
0.481201 0.000122 0.003784
0.535095 0.000000 0.002167
0.576996 0.001892 0.000000
0.630768 0.000000 0.001770
0.675781 0.001648 0.000122
0.724243 0.001526 0.005310
0.761688 0.002533 0.000000
0.804199 0.000000 0.000000
0.850220 0.002655 0.000000
0.878448 0.000122 0.000000
0.914246 0.003784 0.000000
0.952332 0.000885 0.000763
0.981659 0.000122 0.003937
0.996216 0.003540 0.000000
0.999878 0.004181 0.003418
0.996338 0.000244 0.000244
0.992676 0.027313 0.000122
1.000000 0.086914 0.000000
0.003662 0.031891 0.004181
0.007965 0.035797 0.007965
0.027710 0.032135 0.000000
0.051483 0.044159 0.000244
0.067932 0.041229 0.000519
0.099426 0.051361 0.003296
0.129272 0.051483 0.000519
0.166473 0.048065 0.000519
0.195312 0.058075 0.000000
0.243774 0.051727 0.000000
0.286011 0.043152 0.001007
0.337494 0.036560 0.002533
0.383148 0.015442 0.000000
0.434753 0.002136 0.001648
0.481445 0.004181 0.000000
0.533051 0.002014 0.001892
0.580780 0.001892 0.000000
0.632660 0.001892 0.000000
0.678070 0.001648 0.000000
0.724243 0.000000 0.000244
0.762177 0.002533 0.000244
0.804199 0.000000 0.000000
0.844421 0.000244 0.002533
0.881226 0.002899 0.002899
0.914124 0.003662 0.000244
0.953064 0.000000 0.000000
0.977875 0.003937 0.003296
0.995575 0.000000 0.000519
0.996460 0.000366 0.001129
0.989502 0.008850 0.000244
0.999756 0.070587 0.007080
0.996338 0.114990 0.000000
0.000763 0.055664 0.004669
0.007965 0.055542 0.008209
0.023895 0.055664 0.011627
0.043518 0.060333 0.004669
0.074646 0.071594 0.000000
0.100555 0.072479 0.000366
0.132446 0.072479 0.000000
0.163574 0.072113 0.000366
0.194672 0.076019 0.002899
0.242126 0.075256 0.002777
0.282837 0.074646 0.000000
0.333832 0.064636 0.001007
0.384430 0.056030 0.000000
0.438934 0.033905 0.002899
0.484863 0.013031 0.006439
0.536865 0.000000 0.003540
0.579285 0.002014 0.003296
0.631134 0.000000 0.000000
0.680359 0.003937 0.000000
0.724243 0.000000 0.002411
0.763824 0.000366 0.000000
0.807983 0.000000 0.001251
0.847565 0.000000 0.004669
0.884247 0.002899 0.003937
0.914124 0.000885 0.003052
0.945984 0.002777 0.000000
0.977600 0.002899 0.003296
0.996460 0.000763 0.000000
0.996460 0.017578 0.000366
0.999756 0.067932 0.006958
0.996216 0.115356 0.003418
0.992920 0.150543 0.000763
0.003418 0.075531 0.025940
0.008362 0.072235 0.019348
0.015930 0.072357 0.011780
0.035919 0.080322 0.016449
0.066681 0.080963 0.003418
0.098419 0.099670 0.003937
0.128021 0.103973 0.000519
0.160889 0.104370 0.000885
0.204041 0.103485 0.000000
0.245026 0.103485 0.000000
0.289185 0.102722 0.000763
0.333832 0.102081 0.002533
0.384155 0.091217 0.003418
0.438934 0.081604 0.005066
0.489410 0.059326 0.006836
0.536865 0.038574 0.000519
0.583313 0.017700 0.001526
0.632019 0.003784 0.000000
0.679840 0.001770 0.002136
0.724243 0.000000 0.000000
0.762177 0.002014 0.001007
0.805450 0.001251 0.002258
0.845306 0.001129 0.000000
0.882233 0.003937 0.002899
0.908295 0.003937 0.001007
0.951813 0.002777 0.000519
0.980133 0.013153 0.000000
1.000000 0.044281 0.008728
0.999237 0.095245 0.000000
0.995331 0.130676 0.000000
0.996063 0.155090 0.000000
0.999481 0.183411 0.000000
0.003296 0.096649 0.016937
0.003296 0.096649 0.016937
0.008728 0.099945 0.020630
0.024933 0.100189 0.021515
0.045776 0.107788 0.006561
0.077026 0.118896 0.001892
0.124084 0.127502 0.000641
0.165192 0.128265 0.000000
0.205048 0.129669 0.000000
0.244781 0.128632 0.000000
0.289307 0.131927 0.000641
0.340271 0.127258 0.000763
0.387329 0.126495 0.006317
0.444122 0.119171 0.003296
0.485748 0.107910 0.002167
0.538879 0.099304 0.000000
0.590546 0.084625 0.000641
0.634308 0.066284 0.000000
0.681366 0.052734 0.000641
0.727539 0.032990 0.000000
0.768250 0.024536 0.003937
0.806702 0.023254 0.000000
0.847443 0.026184 0.003418
0.885132 0.034637 0.004547
0.917389 0.049591 0.003052
0.950531 0.078552 0.003937
0.974579 0.104492 0.002655
0.998474 0.125488 0.003296
0.993408 0.151031 0.000641
0.996704 0.174957 0.000000
0.999878 0.195068 0.001251
1.000000 0.214935 0.000641
0.000000 0.123840 0.028961
0.000000 0.123840 0.028961
0.003418 0.123840 0.028473
0.019623 0.124207 0.024658
0.039978 0.132202 0.019867
0.076141 0.135742 0.019226
0.108154 0.148132 0.007080
0.155975 0.159393 0.000885
0.201141 0.171417 0.003662
0.241730 0.164185 0.000000
0.286774 0.166992 0.000000
0.335327 0.164948 0.000000
0.387848 0.163055 0.006317
0.443512 0.155090 0.002289
0.485107 0.149902 0.000763
0.535706 0.143829 0.003540
0.589386 0.135864 0.000000
0.634674 0.126495 0.000000
0.681244 0.121429 0.005554
0.726654 0.120544 0.002258
0.767395 0.116241 0.003540
0.810516 0.115875 0.003937
0.845306 0.115479 0.001526
0.883392 0.124847 0.002899
0.912354 0.136871 0.002289
0.946747 0.148895 0.006317
0.974579 0.160889 0.000000
0.998993 0.179993 0.000000
0.998871 0.197083 0.000000
0.997101 0.212128 0.000244
0.999115 0.235535 0.000000
0.999237 0.252350 0.004669
0.003052 0.148621 0.037048
0.003052 0.148621 0.037048
0.003052 0.148621 0.037048
0.003937 0.149506 0.030090
0.025055 0.156464 0.031891
0.060211 0.160156 0.031006
0.100677 0.171021 0.018860
0.137756 0.179108 0.006958
0.193298 0.192902 0.000885
0.247681 0.200500 0.000885
0.289032 0.199982 0.000000
0.341156 0.196075 0.004303
0.384674 0.198364 0.002411
0.440460 0.190369 0.000000
0.492950 0.190491 0.000000
0.542053 0.187714 0.000885
0.591675 0.184814 0.001770
0.642151 0.176575 0.002167
0.681091 0.175568 0.002533
0.723358 0.174805 0.000000
0.766479 0.174316 0.001648
0.808502 0.176575 0.003052
0.845306 0.180634 0.000885
0.879333 0.185699 0.000000
0.913239 0.192657 0.000885
0.945984 0.204681 0.000000
0.974823 0.215820 0.000000
0.998993 0.225281 0.000885
1.000000 0.243774 0.000885
0.996063 0.258820 0.000000
0.996948 0.271973 0.000122
1.000000 0.289825 0.000000
0.003937 0.179504 0.041229
0.000122 0.175720 0.037445
0.000000 0.179504 0.037323
0.000366 0.179871 0.035675
0.008362 0.183411 0.042114
0.044281 0.187988 0.035034
0.081970 0.195953 0.020111
0.126129 0.204803 0.018585
0.175568 0.215820 0.004944
0.228577 0.225037 0.001129
0.291199 0.240356 0.007324
0.343201 0.240723 0.000000
0.397339 0.238831 0.004425
0.442230 0.231873 0.001007
0.489044 0.229340 0.001007
0.536987 0.231628 0.000000
0.581818 0.223633 0.000000
0.632660 0.225677 0.000000
0.679718 0.224670 0.001648
0.719299 0.221741 0.001404
0.763062 0.225677 0.000000
0.803192 0.228333 0.000000
0.841492 0.235291 0.000000
0.877289 0.237427 0.002899
0.908295 0.248322 0.000000
0.947388 0.255524 0.000000
0.977112 0.264252 0.002289
0.993683 0.275146 0.001007
1.000000 0.287262 0.005066
0.995331 0.299927 0.000244
1.000000 0.314606 0.004791
0.998993 0.323700 0.006836
0.000000 0.208466 0.048187
0.001129 0.208466 0.049316
0.000885 0.208710 0.049316
0.000000 0.210358 0.048950
0.002777 0.212402 0.049835
0.027832 0.209595 0.037567
0.073242 0.223785 0.036041
0.108521 0.229828 0.028595
0.162415 0.240845 0.006714
0.213531 0.246033 0.002777
0.270691 0.263733 0.000122
0.336853 0.277924 0.002258
0.391876 0.275879 0.002411
0.438934 0.276276 0.000519
0.487915 0.275146 0.003937
0.542816 0.274384 0.002014
0.582825 0.270325 0.001129
0.626465 0.268433 0.002167
0.674774 0.268433 0.002777
0.722595 0.267303 0.001282
0.763062 0.272095 0.000000
0.804321 0.274994 0.000000
0.839722 0.278534 0.001129
0.876160 0.287659 0.003937
0.905396 0.296021 0.001129
0.937775 0.300934 0.000000
0.971039 0.312073 0.000000
0.998474 0.322815 0.001129
1.000000 0.330414 0.002411
0.993805 0.343811 0.001129
0.998749 0.357117 0.002777
0.994934 0.367615 0.000000
0.003937 0.241608 0.056152
0.003784 0.240204 0.058563
0.002899 0.240356 0.062988
0.002655 0.239075 0.062744
0.002655 0.238831 0.059448
0.010498 0.244263 0.052887
0.052002 0.251617 0.048584
0.102081 0.257416 0.036926
0.144958 0.268951 0.020874
0.195190 0.276642 0.014557
0.256042 0.284729 0.002655
0.312195 0.302216 0.000244
0.391144 0.321198 0.000000
0.441223 0.318634 0.000000
0.494110 0.313446 0.003937
0.538879 0.312836 0.000000
0.583099 0.312195 0.001526
0.634308 0.311310 0.001770
0.678070 0.315094 0.005432
0.720306 0.316132 0.001526
0.761810 0.318787 0.000000
0.797485 0.320038 0.000000
0.835052 0.328278 0.000000
0.869202 0.333069 0.000000
0.904999 0.337860 0.000885
0.936890 0.347992 0.000000
0.962189 0.356598 0.000000
0.990631 0.367859 0.004303
0.997345 0.376190 0.000763
1.000000 0.386444 0.000000
0.997345 0.397095 0.005188
1.000000 0.406311 0.003937
0.000000 0.272217 0.066681
0.001404 0.270844 0.066681
0.000000 0.273621 0.068054
0.001404 0.270844 0.066681
0.000519 0.271729 0.066681
0.002655 0.268311 0.064758
0.035797 0.276276 0.062225
0.091827 0.283997 0.056549
0.135620 0.296143 0.042114
0.183289 0.299927 0.027954
0.234894 0.315094 0.006714
0.289307 0.323212 0.000000
0.358124 0.333832 0.001404
0.435913 0.354828 0.004547
0.488281 0.361664 0.002167
0.538879 0.358002 0.002014
0.580170 0.355469 0.002777
0.631134 0.354187 0.000000
0.674133 0.360382 0.000000
0.718048 0.358490 0.001526
0.757751 0.359894 0.002533
0.794830 0.363922 0.001404
0.828217 0.371918 0.000000
0.866669 0.378479 0.000000
0.900970 0.384186 0.000000
0.932831 0.391876 0.000000
0.961426 0.401001 0.003815
0.987213 0.405792 0.001404
1.000000 0.417938 0.002167
0.997467 0.428589 0.002289
1.000000 0.436798 0.003784
0.998596 0.442230 0.005066
0.000000 0.302582 0.079956
0.002411 0.302582 0.077545
0.002411 0.302582 0.077545
0.002777 0.302582 0.077545
0.002411 0.302582 0.077545
0.002411 0.302582 0.077545
0.024139 0.304871 0.073608
0.076782 0.309784 0.066650
0.128021 0.323212 0.053497
0.175079 0.330780 0.040344
0.232117 0.341797 0.023285
0.284760 0.345581 0.006439
0.339386 0.362030 0.000000
0.404663 0.370239 0.000000
0.478424 0.388458 0.004181
0.533691 0.395813 0.000366
0.581299 0.398224 0.000000
0.628235 0.399719 0.000641
0.674133 0.398102 0.003937
0.712463 0.402771 0.005432
0.757629 0.407562 0.003784
0.794586 0.409332 0.001526
0.828094 0.415802 0.002411
0.864929 0.421753 0.000000
0.898682 0.425415 0.003906
0.925629 0.432739 0.000000
0.959656 0.442871 0.003296
0.992157 0.449310 0.003021
0.997223 0.462097 0.000000
0.997589 0.463989 0.001526
1.000000 0.476532 0.000122
0.995178 0.484497 0.000000
0.003296 0.335968 0.087921
0.003784 0.336731 0.088562
0.000000 0.334351 0.087921
0.006195 0.332062 0.086273
0.000519 0.330933 0.086151
0.000641 0.331055 0.090820
0.014679 0.334442 0.082611
0.072601 0.335968 0.077148
0.121063 0.347107 0.076782
0.167603 0.354431 0.064270
0.218964 0.363037 0.044281
0.273346 0.374420 0.027710
0.327240 0.382904 0.003296
0.386963 0.396454 0.001648
0.447784 0.408600 0.002167
0.518646 0.428833 0.002533
0.584320 0.439178 0.000000
0.621399 0.439575 0.000000
0.666290 0.441223 0.003937
0.709198 0.447418 0.000000
0.749908 0.449951 0.003418
0.781921 0.454010 0.001648
0.824036 0.459686 0.001648
0.856171 0.463745 0.000000
0.892853 0.467529 0.001404
0.924744 0.475769 0.000763
0.953979 0.480438 0.000000
0.983429 0.491577 0.000519
0.997711 0.500031 0.000000
1.000000 0.503967 0.000000
1.000000 0.512207 0.000000
0.996704 0.521942 0.000000
0.002167 0.366089 0.093719
0.000000 0.368256 0.093719
0.000000 0.366089 0.098053
0.000000 0.363556 0.095520
0.000000 0.364838 0.102081
0.000000 0.360657 0.102600
0.014160 0.365692 0.096252
0.068054 0.363037 0.089813
0.116608 0.373169 0.090576
0.163666 0.381134 0.082977
0.217957 0.390869 0.064636
0.261475 0.400238 0.047668
0.318146 0.410736 0.027710
0.367096 0.418823 0.001892
0.428070 0.432373 0.001770
0.486115 0.444397 0.000000
0.566132 0.466797 0.001770
0.618988 0.483337 0.000000
0.664032 0.483337 0.000000
0.704620 0.487274 0.000000
0.742065 0.489807 0.001770
0.784088 0.497375 0.000000
0.817230 0.499023 0.001770
0.855927 0.504730 0.004059
0.887543 0.509918 0.001770
0.923096 0.515350 0.000000
0.952576 0.522949 0.000000
0.982300 0.529907 0.000000
0.997467 0.535706 0.001770
1.000000 0.540009 0.000000
1.000000 0.551910 0.000122
0.995697 0.557861 0.003540
0.003937 0.393768 0.103851
0.004059 0.394043 0.104248
0.000000 0.397705 0.107635
0.000000 0.399353 0.108521
0.005432 0.395294 0.109161
0.000000 0.395172 0.107788
0.016174 0.391876 0.103851
0.070068 0.391876 0.099792
0.118774 0.395050 0.097778
0.167603 0.406067 0.094879
0.211487 0.414795 0.080963
0.255402 0.422241 0.068054
0.307648 0.436157 0.039978
0.360260 0.442230 0.020111
0.412384 0.454254 0.003937
0.468292 0.466278 0.003784
0.528320 0.482208 0.005829
0.599792 0.504364 0.000000
0.656830 0.525208 0.003784
0.700348 0.525726 0.001892
0.740936 0.532928 0.001404
0.779907 0.535583 0.000000
0.813934 0.537750 0.001892
0.850861 0.542816 0.000000
0.881744 0.550903 0.000000
0.917786 0.555847 0.001892
0.948517 0.563171 0.007202
0.975464 0.566345 0.000000
0.997742 0.577728 0.001892
1.000000 0.579987 0.000000
0.999878 0.585938 0.000000
0.996216 0.593781 0.002014
0.002014 0.423798 0.117523
0.002014 0.423798 0.117523
0.000000 0.427704 0.115753
0.000366 0.427338 0.115387
0.000000 0.425690 0.113739
0.000641 0.423157 0.121582
0.026947 0.423798 0.119690
0.082977 0.422913 0.112976
0.126617 0.418854 0.109802
0.166473 0.428711 0.109558
0.205536 0.441101 0.096130
0.253357 0.448090 0.089172
0.299408 0.457550 0.072754
0.349121 0.468201 0.053772
0.402496 0.480194 0.024689
0.450592 0.492218 0.000397
0.506165 0.508057 0.003937
0.566132 0.520203 0.005554
0.632019 0.538666 0.000000
0.694641 0.566864 0.000000
0.734100 0.571442 0.002014
0.775970 0.576752 0.000641
0.807220 0.578766 0.003174
0.847961 0.587616 0.002014
0.878937 0.588501 0.002014
0.909943 0.593689 0.000000
0.938019 0.599762 0.000000
0.967102 0.605194 0.000000
0.997986 0.609772 0.002014
1.000000 0.615967 0.004059
1.000000 0.621765 0.000000
0.998108 0.625702 0.003937
0.000000 0.455688 0.128021
0.000000 0.455688 0.128021
0.000000 0.455688 0.128021
0.000000 0.455292 0.123352
0.000000 0.457428 0.126251
0.001251 0.453278 0.126770
0.038574 0.453522 0.127014
0.094513 0.451752 0.125366
0.134583 0.447845 0.123718
0.172546 0.454651 0.119690
0.211121 0.462616 0.112854
0.251862 0.471985 0.100952
0.291687 0.480713 0.089081
0.341034 0.492615 0.073517
0.390625 0.500580 0.050385
0.440857 0.515869 0.024811
0.494507 0.529938 0.000000
0.551575 0.545868 0.003937
0.607727 0.558411 0.002167
0.663635 0.575836 0.000519
0.727386 0.608612 0.003937
0.766235 0.613434 0.000000
0.799103 0.614319 0.000000
0.840118 0.622528 0.002167
0.868835 0.630371 0.000000
0.900696 0.631134 0.001007
0.936249 0.635834 0.002167
0.965332 0.644653 0.001251
0.985718 0.647064 0.002136
0.996460 0.653900 0.000000
0.999878 0.657318 0.003418
0.997833 0.661743 0.000000
0.000000 0.487549 0.141815
0.000000 0.487549 0.137268
0.000000 0.487549 0.132080
0.001648 0.485901 0.130035
0.001648 0.484131 0.133850
0.010620 0.483643 0.132965
0.060730 0.483734 0.139526
0.110809 0.482239 0.139008
0.146118 0.482361 0.134613
0.177734 0.481354 0.128265
0.218719 0.488800 0.128418
0.252991 0.498413 0.121948
0.293732 0.507172 0.111847
0.337616 0.518280 0.095398
0.381378 0.526367 0.082367
0.426788 0.540802 0.052277
0.481110 0.553314 0.021637
0.533722 0.567383 0.003540
0.592438 0.580017 0.002289
0.641388 0.597473 0.000122
0.694885 0.613800 0.001892
0.755859 0.643921 0.001648
0.799377 0.654022 0.000000
0.836456 0.652893 0.000000
0.864899 0.662384 0.002533
0.898926 0.666290 0.000763
0.928162 0.673523 0.003296
0.955353 0.677551 0.000000
0.984833 0.683258 0.000000
0.999756 0.685516 0.003937
0.997589 0.689056 0.000000
1.000000 0.697662 0.000000
0.000000 0.520935 0.151428
0.000000 0.519440 0.151428
0.000000 0.517914 0.149902
0.004822 0.515503 0.148407
0.006836 0.518524 0.145599
0.037567 0.517914 0.145996
0.084747 0.514008 0.150665
0.123596 0.510071 0.146606
0.159271 0.508179 0.154205
0.183044 0.508789 0.140808
0.219208 0.514374 0.135620
0.260834 0.523712 0.135620
0.303223 0.531830 0.129425
0.346985 0.543823 0.118439
0.384430 0.555603 0.099945
0.427704 0.566864 0.085175
0.478699 0.581787 0.057678
0.526398 0.591919 0.022400
0.579651 0.606476 0.001648
0.625946 0.623810 0.001526
0.673126 0.640625 0.000000
0.722961 0.649841 0.000244
0.784454 0.680969 0.000366
0.833649 0.692871 0.002411
0.855652 0.695648 0.001251
0.891846 0.704620 0.002411
0.917908 0.707672 0.000885
0.949921 0.712097 0.001007
0.978485 0.715118 0.005951
0.996826 0.719177 0.000000
0.998596 0.720825 0.002411
0.996979 0.727264 0.000000
0.000000 0.551300 0.157776
0.001404 0.551300 0.161926
0.000000 0.549927 0.160553
0.000366 0.550293 0.160156
0.034302 0.548035 0.159912
0.070099 0.548767 0.161285
0.112579 0.547394 0.158630
0.141937 0.545990 0.150177
0.175323 0.544983 0.157379
0.203156 0.542084 0.152954
0.228455 0.542206 0.146362
0.265778 0.547394 0.147644
0.303864 0.557770 0.143341
0.344086 0.570770 0.134491
0.388458 0.581909 0.117035
0.429718 0.590515 0.104492
0.480225 0.609619 0.091858
0.524506 0.622284 0.067932
0.567108 0.631775 0.025940
0.613281 0.647583 0.001648
0.654663 0.661102 0.002777
0.707397 0.678070 0.000000
0.753326 0.689575 0.000244
0.803650 0.712219 0.000000
0.849335 0.732208 0.001007
0.886017 0.734222 0.000763
0.914734 0.736389 0.006439
0.944580 0.746368 0.002533
0.975708 0.747009 0.003937
0.993042 0.751312 0.000000
0.999878 0.752563 0.000000
0.997467 0.757996 0.004181
0.001251 0.587097 0.172546
0.000000 0.588379 0.171295
0.009094 0.585846 0.169128
0.037323 0.583191 0.174591
0.071472 0.585327 0.165222
0.107269 0.580536 0.166595
0.136505 0.582550 0.170776
0.167114 0.580658 0.169128
0.195953 0.578400 0.166748
0.219238 0.576874 0.163452
0.245514 0.575348 0.163300
0.276154 0.582031 0.159515
0.316132 0.589874 0.151428
0.355957 0.598877 0.147766
0.388458 0.608490 0.138153
0.434387 0.621643 0.127655
0.474792 0.632263 0.111694
0.516663 0.645935 0.092224
0.562439 0.654663 0.063385
0.607849 0.666809 0.041260
0.651886 0.683502 0.002533
0.699554 0.696899 0.001251
0.742188 0.708923 0.000000
0.782806 0.722198 0.000000
0.832001 0.748138 0.000366
0.879822 0.766754 0.007843
0.907135 0.768127 0.003937
0.933838 0.775604 0.000763
0.966095 0.773560 0.000000
0.993164 0.779510 0.000000
0.999878 0.780396 0.002655
1.000000 0.787109 0.006592
0.022278 0.621765 0.182037
0.041138 0.625580 0.189636
0.059723 0.618988 0.182922
0.088440 0.622162 0.187469
0.106781 0.618988 0.181549
0.136383 0.618988 0.178253
0.160553 0.622528 0.180023
0.186462 0.616974 0.182037
0.216309 0.617859 0.180267
0.237579 0.615051 0.178741
0.263885 0.613922 0.178864
0.285889 0.613922 0.173065
0.326752 0.621765 0.169769
0.359497 0.628479 0.160797
0.403778 0.636566 0.157379
0.443634 0.650116 0.142944
0.476044 0.659851 0.135742
0.519928 0.674286 0.119293
0.561554 0.681213 0.098419
0.601013 0.697052 0.086029
0.643768 0.707794 0.046051
0.682373 0.726135 0.006195
0.728790 0.739410 0.000000
0.776337 0.744843 0.005707
0.809357 0.758118 0.000000
0.858063 0.782043 0.000000
0.904999 0.796600 0.003784
0.938538 0.800018 0.000000
0.966736 0.804443 0.006317
0.990509 0.808105 0.000000
1.000000 0.811127 0.005585
1.000000 0.813934 0.001129
0.091980 0.661621 0.191132
0.097290 0.658844 0.192291
0.114990 0.660614 0.196198
0.130554 0.661987 0.195435
0.146362 0.661102 0.198486
0.167114 0.658691 0.189880
0.187469 0.653381 0.186829
0.210510 0.657684 0.194946
0.239227 0.655670 0.191132
0.259064 0.650848 0.185455
0.285370 0.648590 0.193420
0.307007 0.645416 0.188629
0.336975 0.653778 0.181396
0.373810 0.660339 0.184204
0.407837 0.668304 0.174835
0.448700 0.676300 0.160797
0.479828 0.688324 0.154083
0.519562 0.701080 0.144836
0.562714 0.709686 0.127014
0.600281 0.722839 0.118042
0.637207 0.735992 0.098297
0.680206 0.746368 0.070831
0.719818 0.762329 0.024414
0.757751 0.771423 0.000000
0.800385 0.776611 0.000000
0.839600 0.788635 0.000000
0.887787 0.809875 0.000763
0.931824 0.827850 0.003418
0.956726 0.831635 0.001770
0.984192 0.833008 0.001007
1.000000 0.835175 0.005829
1.000000 0.840118 0.000000
0.135864 0.699707 0.210876
0.147766 0.697418 0.209991
0.159668 0.694763 0.210236
0.170135 0.694885 0.208221
0.185211 0.694885 0.210876
0.199890 0.694519 0.206085
0.219879 0.695892 0.208221
0.237946 0.693634 0.213928
0.259338 0.693634 0.211884
0.283112 0.692474 0.207733
0.305634 0.690948 0.206085
0.332581 0.687164 0.203430
0.353333 0.687286 0.196716
0.382141 0.695251 0.196838
0.419708 0.703217 0.190399
0.450104 0.712097 0.182556
0.487549 0.723114 0.171783
0.523224 0.733215 0.161682
0.564331 0.739807 0.153839
0.604828 0.749420 0.146362
0.639221 0.760651 0.135620
0.676422 0.769897 0.113983
0.709442 0.784180 0.091095
0.751801 0.798248 0.067688
0.785583 0.800385 0.015198
0.832123 0.815430 0.000000
0.867676 0.820740 0.000000
0.911957 0.834656 0.006439
0.951416 0.856689 0.000000
0.987213 0.860992 0.000000
0.996826 0.860229 0.003052
0.993042 0.864014 0.000000
0.184448 0.736633 0.225922
0.192535 0.737396 0.229858
0.200653 0.736633 0.228607
0.215820 0.736633 0.225922
0.221008 0.733978 0.227203
0.230988 0.735870 0.223389
0.250977 0.735870 0.229095
0.276398 0.730438 0.230621
0.284637 0.731323 0.224182
0.307007 0.732208 0.223145
0.330170 0.726379 0.223907
0.353455 0.729553 0.223022
0.373322 0.725616 0.220490
0.401886 0.729675 0.218079
0.431610 0.735992 0.209869
0.466919 0.745850 0.209503
0.498047 0.752686 0.201263
0.529419 0.763824 0.193817
0.563843 0.771790 0.183044
0.597107 0.782928 0.174194
0.635803 0.791016 0.163818
0.674133 0.803040 0.156372
0.708038 0.811127 0.141693
0.741058 0.819244 0.130432
0.780914 0.826691 0.101715
0.819733 0.832275 0.063782
0.858337 0.844147 0.015808
0.892365 0.851624 0.000519
0.926239 0.862000 0.000366
0.980652 0.880341 0.000000
1.000000 0.890961 0.000641
1.000000 0.884766 0.000763
0.236053 0.773315 0.250336
0.243286 0.777222 0.254272
0.243774 0.775726 0.245789
0.256042 0.777222 0.249084
0.269073 0.771149 0.248718
0.273254 0.770660 0.242493
0.292480 0.773315 0.249847
0.306274 0.771790 0.253906
0.322723 0.767120 0.250092
0.342957 0.771545 0.252380
0.359375 0.769379 0.247070
0.373444 0.769379 0.240601
0.397583 0.762817 0.245178
0.420990 0.768768 0.241882
0.450470 0.770264 0.233398
0.481445 0.780396 0.235443
0.514771 0.783813 0.226959
0.543091 0.795197 0.224915
0.578766 0.803680 0.215820
0.606232 0.812286 0.204437
0.642639 0.820374 0.205963
0.676666 0.827576 0.196838
0.708557 0.838959 0.188995
0.741058 0.844147 0.174713
0.774963 0.848450 0.154205
0.816589 0.856293 0.134491
0.852386 0.864136 0.115112
0.884369 0.872223 0.088684
0.910431 0.880066 0.036194
0.951416 0.892090 0.000000
0.989258 0.908295 0.001007
0.999359 0.911835 0.000000
0.286652 0.809753 0.280823
0.290710 0.813660 0.284760
0.295013 0.813171 0.284760
0.295776 0.813171 0.277283
0.300446 0.816071 0.279816
0.315765 0.816437 0.279816
0.322083 0.813171 0.280579
0.350281 0.812286 0.280823
0.356873 0.809753 0.278320
0.375092 0.812012 0.272980
0.388245 0.808746 0.272980
0.408600 0.807220 0.264771
0.426453 0.807739 0.272980
0.446533 0.807587 0.270203
0.468689 0.811005 0.266815
