workflows/comfyui/luts/Presetpro - Ektachrome.cube
#Created by: Adobe Photoshop Export Color Lookup Plugin
#Copyright: (C) Copyright 2022 Tim Martin and Presetpro.com
TITLE "Presetpro - Ektachrome.jpg"
#LUT size
LUT_3D_SIZE 5
#data domain
#LUT data points
DOMAIN_MIN 0.000000 0.000000 0.000000
DOMAIN_MAX 0.903226 0.903226 0.903226
0.000000 0.000000 0.000000
0.149017 0.011780 0.003937
0.334320 0.009613 0.003937
0.608124 0.000000 0.000000
0.877289 0.000000 0.000000
0.006958 0.186951 0.072357
0.146851 0.179993 0.034912
0.403137 0.176971 0.002167
0.660858 0.191772 0.003052
0.896912 0.216187 0.000000
0.000000 0.489044 0.148621
0.000000 0.480316 0.132050
0.363556 0.467651 0.042755
0.689575 0.481201 0.004822
0.943939 0.489410 0.000000
0.000000 0.738647 0.298187
0.003937 0.739166 0.277802
0.296875 0.725616 0.265930
0.631653 0.713867 0.122955
0.911713 0.716522 0.000000
0.148804 0.904755 0.543579
0.252625 0.909546 0.537506
0.471466 0.902985 0.541046
0.674255 0.899933 0.521057
0.862000 0.896515 0.404816
0.035309 0.000000 0.178253
0.166962 0.014801 0.162170
0.364807 0.000000 0.130310
0.628479 0.002655 0.088409
0.892975 0.056671 0.001770
0.006958 0.183044 0.219208
0.186951 0.192657 0.212250
0.409729 0.194794 0.175201
0.671234 0.188721 0.113220
0.910431 0.228821 0.006592
0.000000 0.495605 0.302460
0.002167 0.496887 0.274994
0.397949 0.485992 0.222260
0.711334 0.485138 0.134216
0.940033 0.486877 0.006073
0.000885 0.738647 0.414917
0.001770 0.740051 0.381531
0.351776 0.730072 0.372681
0.649475 0.716522 0.276398
0.922577 0.715637 0.102448
0.326508 0.902100 0.615570
0.330414 0.905640 0.588501
0.498291 0.903870 0.582428
0.687805 0.900452 0.564972
0.870209 0.900055 0.460846
0.041382 0.000000 0.431976
0.218323 0.000885 0.423645
0.424133 0.002167 0.391388
0.677795 0.000000 0.365692
0.894745 0.001770 0.268433
0.001770 0.170898 0.465515
0.214417 0.176971 0.460693
0.458557 0.194794 0.434509
0.694763 0.187469 0.384033
0.899048 0.216187 0.306000
0.003540 0.489044 0.516479
0.000885 0.498138 0.513458
0.489044 0.528625 0.514709
0.721313 0.505981 0.458923
0.932190 0.482971 0.360382
0.001251 0.743469 0.579254
0.002136 0.745239 0.575714
0.465485 0.741302 0.568756
0.693878 0.728668 0.523834
0.933960 0.720947 0.458038
0.249359 0.910065 0.679047
0.381165 0.906891 0.679932
0.552429 0.906891 0.676910
0.716644 0.902222 0.667816
0.886536 0.900452 0.598480
0.166229 0.000000 0.681213
0.296021 0.002655 0.686920
0.537506 0.000885 0.680481
0.753082 0.000000 0.651123
0.944489 0.141815 0.630371
0.150055 0.149506 0.700317
0.297272 0.148621 0.700836
0.543945 0.155212 0.690826
0.762329 0.209747 0.665161
0.934845 0.319183 0.640381
0.000885 0.437561 0.716888
0.153076 0.446777 0.719177
0.526123 0.488678 0.721344
0.756622 0.532166 0.700836
0.922974 0.534332 0.655182
0.000000 0.720306 0.749146
0.198486 0.719543 0.746124
0.503845 0.733459 0.751801
0.772675 0.756989 0.758392
0.936127 0.723969 0.699951
0.199615 0.912201 0.802917
0.320557 0.906891 0.800262
0.525085 0.908661 0.797974
0.759277 0.906006 0.799377
0.902588 0.900818 0.756989
0.375336 0.000000 0.908295
0.459076 0.000000 0.903870
0.629852 0.000000 0.906128
0.844666 0.000000 0.896912
0.999237 0.153442 0.876923
0.366608 0.119537 0.910828
0.453003 0.110291 0.910431
0.629333 0.105103 0.908295
0.837708 0.250854 0.902222
1.000000 0.330048 0.881226
0.297272 0.443756 0.916138
0.395325 0.445892 0.913849
0.596313 0.465118 0.913605
0.813660 0.518280 0.899048
0.981415 0.563568 0.885132
0.169800 0.692993 0.915253
0.290192 0.690826 0.913483
0.516113 0.689941 0.913483
0.779388 0.716888 0.910583
0.962799 0.746490 0.907013
0.405945 0.881226 0.943573
0.460968 0.882477 0.944458
0.587097 0.889435 0.940430
0.760529 0.896515 0.932709
0.952942 0.928284 0.936493
