workflows/comfyui/luts/Presetpro - Moody Grade.cube
#Created by: Adobe Photoshop Export Color Lookup Plugin
#Copyright: (C) Copyright 2022 Tim Martin and Presetpro.com
TITLE "Presetpro - Moody Grade"
#LUT size
LUT_3D_SIZE 5
#data domain
#LUT data points
DOMAIN_MIN 0.000000 0.000000 0.000000
DOMAIN_MAX 0.903226 0.903226 0.903226
0.000000 0.000000 0.000000
0.167358 0.015686 0.003052
0.481201 0.000000 0.003937
0.807983 0.000000 0.001251
0.996063 0.000000 0.000763
0.003052 0.148621 0.037048
0.137756 0.179108 0.006958
0.492950 0.190491 0.000000
0.808502 0.176575 0.003052
1.000000 0.243774 0.000885
0.002167 0.366089 0.093719
0.068054 0.363037 0.089813
0.428070 0.432373 0.001770
0.784088 0.497375 0.000000
0.997467 0.535706 0.001770
0.001251 0.587097 0.172546
0.167114 0.580658 0.169128
0.388458 0.608490 0.138153
0.699554 0.696899 0.001251
0.966095 0.773560 0.000000
0.334595 0.852997 0.315369
0.386475 0.848206 0.313995
0.501831 0.846924 0.311066
0.691711 0.887421 0.283508
0.905518 0.923584 0.217346
0.000000 0.007843 0.174805
0.180878 0.000000 0.181763
0.493835 0.001770 0.176971
0.810242 0.001770 0.182678
0.997345 0.000000 0.188721
0.000000 0.179108 0.172150
0.187836 0.195679 0.191772
0.504730 0.190887 0.190002
0.807587 0.186584 0.186066
0.994690 0.259827 0.184814
0.096375 0.401886 0.222260
0.203522 0.393158 0.214417
0.458923 0.438934 0.186951
0.789246 0.496002 0.176575
1.000000 0.542297 0.184418
0.162689 0.612396 0.260223
0.247559 0.601532 0.258057
0.421112 0.614166 0.246307
0.707275 0.701355 0.201385
0.971405 0.777618 0.171265
0.364197 0.854645 0.375854
0.408234 0.853394 0.370148
0.513214 0.851227 0.368896
0.693878 0.884766 0.347870
0.905640 0.924866 0.314484
0.000000 0.012146 0.426300
0.192261 0.000885 0.433258
0.532166 0.000000 0.458038
0.817230 0.000885 0.451233
0.998230 0.003540 0.443756
0.002655 0.190002 0.426666
0.222748 0.199615 0.431488
0.543945 0.185211 0.452850
0.819763 0.126495 0.452881
1.000000 0.193665 0.448944
0.183167 0.445892 0.418457
0.315094 0.449829 0.422363
0.538239 0.471588 0.442352
0.803284 0.493835 0.451233
0.996063 0.542175 0.468048
0.388489 0.668182 0.469452
0.438080 0.665527 0.470337
0.514709 0.649841 0.438446
0.727386 0.712219 0.435791
0.968872 0.777130 0.472839
0.444397 0.873383 0.525726
0.467285 0.874756 0.513977
0.558868 0.866913 0.505737
0.700439 0.879059 0.494385
0.912201 0.926117 0.500061
0.013306 0.003937 0.686401
0.281219 0.003052 0.696533
0.583679 0.003021 0.712219
0.846069 0.002655 0.729675
1.000000 0.005310 0.721710
0.135742 0.207458 0.684753
0.319550 0.206207 0.692993
0.589233 0.199249 0.707947
0.837708 0.198853 0.726501
0.995575 0.213287 0.729553
0.133453 0.458038 0.671600
0.306885 0.457153 0.676422
0.571777 0.472839 0.699951
0.813660 0.505615 0.723114
0.999237 0.519165 0.720581
0.398865 0.712585 0.677307
0.456818 0.717407 0.679962
0.599762 0.726135 0.684784
0.772675 0.746643 0.700836
0.972168 0.778870 0.731323
0.591919 0.900452 0.743591
0.613678 0.898682 0.742706
0.673370 0.899567 0.734863
0.733582 0.885132 0.688324
0.917786 0.929291 0.710449
0.367493 0.000000 0.931061
0.470856 0.000000 0.934998
0.659821 0.000000 0.932587
0.867432 0.056061 0.946228
0.992920 0.170288 0.952179
0.391144 0.238068 0.929657
0.480713 0.234528 0.924744
0.665527 0.240204 0.933075
0.860718 0.281708 0.939148
0.999634 0.337891 0.951294
0.347534 0.480438 0.921814
0.450226 0.485992 0.923096
0.640228 0.504364 0.926117
0.831512 0.541412 0.935730
0.996063 0.582794 0.946106
0.347900 0.734497 0.904755
0.413147 0.728790 0.903870
0.560547 0.722717 0.907776
0.785339 0.755341 0.923096
0.971802 0.794189 0.942688
0.582428 0.920807 0.901581
0.608459 0.924347 0.905640
0.687653 0.928650 0.909058
0.807220 0.932709 0.912201
0.940796 0.940430 0.931824
