workflows/comfyui/luts/Presetpro - Ektachrome.cube
#Created by: Adobe Photoshop Export Color Lookup Plugin
#Copyright: (C) Copyright 2022 Tim Martin and Presetpro.com
TITLE "Presetpro - Ektachrome.jpg"
#LUT size
LUT_3D_SIZE 8
#data domain
#LUT data points
DOMAIN_MIN 0.000000 0.000000 0.000000
DOMAIN_MAX 0.903226 0.903226 0.903226
0.000000 0.000000 0.000000
0.082855 0.004425 0.007324
0.169769 0.014679 0.004944
0.269440 0.010864 0.001526
0.406219 0.002014 0.000000
0.572296 0.000000 0.000000
0.724121 0.003937 0.000000
0.877289 0.000000 0.000000
0.000000 0.100067 0.026062
0.076019 0.088806 0.004944
0.193665 0.087799 0.002899
0.301697 0.090698 0.002411
0.433655 0.085754 0.005432
0.584686 0.069183 0.005432
0.742065 0.051605 0.000885
0.885254 0.077667 0.003418
0.001007 0.219727 0.079437
0.001007 0.218719 0.078949
0.175568 0.210999 0.050995
0.322693 0.215820 0.002411
0.491486 0.214935 0.002899
0.634277 0.226166 0.000000
0.771149 0.241241 0.000000
0.902832 0.258575 0.002014
0.005432 0.389496 0.129425
0.000519 0.389496 0.117645
0.035797 0.384033 0.115356
0.291443 0.383148 0.060333
0.479706 0.386963 0.003418
0.653259 0.393402 0.001404
0.816711 0.402771 0.003937
0.929779 0.416168 0.000366
0.001892 0.572937 0.170654
0.003784 0.570557 0.166107
0.000000 0.566986 0.154083
0.203766 0.557129 0.138916
0.445312 0.547394 0.031494
0.628723 0.552704 0.000000
0.800385 0.557129 0.002014
0.942322 0.557129 0.000366
0.005066 0.713715 0.266418
0.002777 0.708160 0.251892
0.005432 0.704254 0.245422
0.111664 0.699951 0.241638
0.409393 0.693878 0.200409
0.596985 0.685791 0.101715
0.765961 0.688049 0.000000
0.920044 0.683502 0.002899
0.000885 0.815186 0.389496
0.003418 0.813416 0.384186
0.000885 0.809998 0.378998
0.203522 0.812408 0.369019
0.441650 0.802155 0.373077
0.595215 0.797363 0.322449
0.738525 0.784302 0.227844
0.894379 0.790527 0.009613
0.148804 0.904755 0.543579
0.163452 0.904877 0.539032
0.288818 0.904755 0.545349
0.411774 0.903229 0.545227
0.537659 0.902466 0.539673
0.647064 0.898926 0.533081
0.752960 0.903473 0.477539
0.862000 0.896515 0.404816
0.017700 0.000000 0.096130
0.087280 0.003418 0.079437
0.177612 0.014160 0.060852
0.286011 0.034790 0.055908
0.428223 0.031738 0.026062
0.581665 0.008728 0.000000
0.739288 0.001892 0.000519
0.881714 0.000885 0.000885
0.000000 0.092712 0.116241
0.095642 0.099548 0.115753
0.194672 0.099548 0.105896
0.307129 0.100067 0.080444
0.442535 0.094604 0.043121
0.597992 0.093750 0.000000
0.747375 0.112213 0.002533
0.889191 0.130676 0.000519
0.001007 0.223145 0.162811
0.028839 0.220734 0.147614
0.192657 0.218323 0.129028
0.332184 0.221619 0.101074
0.495026 0.219727 0.059692
0.638580 0.221741 0.002777
0.779907 0.240356 0.000000
0.910065 0.269806 0.003052
0.000519 0.393921 0.199738
0.002014 0.393921 0.181030
0.071991 0.389496 0.181519
0.305603 0.386078 0.131927
0.496429 0.390503 0.070831
0.668945 0.396301 0.001007
0.814819 0.403656 0.003937
0.934082 0.414032 0.001770
0.002533 0.577362 0.257050
0.000000 0.578400 0.220886
0.003784 0.575348 0.206940
0.224243 0.565979 0.195831
0.449860 0.553711 0.128540
0.633667 0.560547 0.000519
0.803436 0.561188 0.000000
0.942932 0.559296 0.001526
0.002533 0.714630 0.330048
0.000519 0.713470 0.307526
0.004944 0.710205 0.292480
0.160004 0.704620 0.290955
0.424316 0.697784 0.255280
0.604828 0.687164 0.175476
0.773315 0.691101 0.001526
0.918518 0.688049 0.006439
0.000519 0.809998 0.434662
0.002258 0.815582 0.422913
0.004425 0.811005 0.411896
0.239197 0.810120 0.401154
0.452667 0.801270 0.402405
0.601135 0.796478 0.355225
0.748535 0.788116 0.275391
0.898804 0.794312 0.098175
0.236816 0.904755 0.570282
0.239990 0.908661 0.563812
0.305634 0.907776 0.560913
0.425171 0.909424 0.560791
0.540802 0.900330 0.555847
0.654663 0.897034 0.546997
0.753448 0.900818 0.497772
0.869324 0.899933 0.425049
0.037323 0.002899 0.209991
0.107910 0.000000 0.201141
0.190247 0.011780 0.183411
0.305115 0.020996 0.178986
0.436707 0.001892 0.150146
0.587616 0.001007 0.133820
0.740692 0.002014 0.093231
0.885773 0.037201 0.000000
0.004425 0.085388 0.218323
0.101562 0.096130 0.224152
0.208466 0.104980 0.218201
0.320801 0.106384 0.194672
0.457703 0.101440 0.168243
0.607605 0.089294 0.149017
0.756378 0.098663 0.097778
0.896637 0.135620 0.000519
0.000000 0.221619 0.259949
0.051880 0.227570 0.259949
0.216827 0.231506 0.245270
0.350281 0.229584 0.229584
0.498444 0.228577 0.197205
0.644897 0.225677 0.166199
0.784576 0.236420 0.105743
0.913727 0.259583 0.000366
0.000000 0.399841 0.304108
0.001526 0.404785 0.297760
0.113739 0.413025 0.278046
0.338013 0.401245 0.253632
0.527283 0.406189 0.222260
0.688049 0.400238 0.189362
0.813019 0.401245 0.128265
0.930939 0.406555 0.003784
0.003052 0.580658 0.357117
0.001892 0.578888 0.348114
0.007568 0.581665 0.326630
0.273590 0.576355 0.312836
0.479706 0.567017 0.269836
0.664001 0.566986 0.201141
0.816071 0.562195 0.157104
0.953705 0.559143 0.054382
0.004791 0.714996 0.419983
0.003937 0.710693 0.420868
0.000000 0.721191 0.388489
0.236420 0.706268 0.376709
0.450867 0.699829 0.354828
0.619507 0.692108 0.299927
0.787109 0.690948 0.200378
0.927124 0.687561 0.144714
0.000885 0.813049 0.510071
0.000519 0.813904 0.516510
0.023743 0.809998 0.485657
0.298401 0.812012 0.473511
0.475800 0.802155 0.469818
0.618103 0.799377 0.432007
0.754333 0.789642 0.366211
0.904358 0.795441 0.247803
0.346985 0.902222 0.624023
0.358124 0.902832 0.617584
0.370789 0.906891 0.602020
0.447418 0.906769 0.595062
0.561188 0.901215 0.591400
0.668945 0.897278 0.590118
0.761169 0.900452 0.543182
0.871216 0.899689 0.476013
0.045532 0.000000 0.348755
0.120178 0.001007 0.347351
0.230988 0.001007 0.336975
0.339386 0.008728 0.318909
0.482117 0.000000 0.310059
0.620880 0.002533 0.274231
0.751556 0.002411 0.228973
0.889587 0.002014 0.200867
0.016205 0.089172 0.365448
0.121582 0.085876 0.365448
0.238953 0.094635 0.359497
0.352661 0.100067 0.325348
0.495758 0.099915 0.330536
0.637054 0.014801 0.288391
0.762299 0.055054 0.249084
0.894897 0.099670 0.205811
0.000000 0.204041 0.392395
0.003021 0.209869 0.388458
0.234894 0.226044 0.388977
0.380127 0.235535 0.372772
0.518921 0.239319 0.355591
0.646301 0.223145 0.303589
0.777344 0.243896 0.277161
0.914612 0.245789 0.225403
0.001526 0.394928 0.430206
0.000000 0.401245 0.432129
0.142303 0.408600 0.431091
0.395813 0.432617 0.428711
0.547394 0.418976 0.394043
0.679688 0.410492 0.353943
0.809753 0.406677 0.314972
0.930298 0.403290 0.249054
0.003937 0.584595 0.477173
0.001007 0.586090 0.475647
0.003540 0.590546 0.468811
0.350769 0.591522 0.457184
0.521851 0.582184 0.427185
0.693970 0.578644 0.395447
0.837311 0.572937 0.370392
0.951416 0.560059 0.308167
0.001007 0.714874 0.519409
0.003296 0.715363 0.521027
0.032593 0.716522 0.518402
0.331665 0.718414 0.499817
0.502502 0.706268 0.494995
0.652252 0.699310 0.451355
0.800903 0.696411 0.391907
0.936127 0.689972 0.358612
0.000000 0.816071 0.570770
0.007599 0.813416 0.580170
0.255066 0.809845 0.573425
0.385315 0.812408 0.564209
0.522980 0.807983 0.557129
0.646545 0.799255 0.537628
0.769653 0.794067 0.480316
0.910675 0.795685 0.393280
0.299957 0.905121 0.652863
0.339142 0.908417 0.658691
0.439087 0.908936 0.669067
0.487915 0.904755 0.645020
0.582306 0.903870 0.645020
0.687286 0.901215 0.638580
0.773315 0.900055 0.609863
0.879700 0.895020 0.556854
0.045288 0.000000 0.502350
0.134338 0.000000 0.497040
0.263000 0.001892 0.496399
0.401764 0.001892 0.485779
0.518036 0.001892 0.465027
0.664520 0.001404 0.463898
0.788757 0.000000 0.427856
0.909943 0.000366 0.373840
0.029999 0.076019 0.517029
0.137756 0.072601 0.518433
0.264008 0.067017 0.522217
0.414398 0.067017 0.504639
0.533234 0.063232 0.480225
0.669586 0.079437 0.469849
0.801270 0.035309 0.438995
0.917511 0.003052 0.376892
0.004791 0.201141 0.541595
0.082977 0.205933 0.542603
0.264893 0.206940 0.541321
0.423920 0.226044 0.531189
0.556244 0.239319 0.505280
0.677063 0.270203 0.494873
0.802277 0.245422 0.451385
0.917023 0.217957 0.388000
0.000000 0.373138 0.559662
0.002014 0.369354 0.554718
0.157623 0.377716 0.564972
0.418701 0.406158 0.562042
0.570923 0.436035 0.545502
0.689941 0.437561 0.526642
0.799377 0.414520 0.471375
0.910065 0.415924 0.431641
0.002014 0.568909 0.594452
0.006195 0.572327 0.588501
0.073364 0.576752 0.591400
0.385559 0.586090 0.590546
0.584595 0.608124 0.596466
0.709564 0.597870 0.571808
0.814178 0.574860 0.530701
0.930176 0.559143 0.473389
0.002014 0.718781 0.624939
0.001526 0.713989 0.628601
0.080566 0.717896 0.616577
0.380371 0.719818 0.619110
0.567017 0.721313 0.616974
0.688049 0.709412 0.592194
0.823914 0.704742 0.558777
0.950531 0.695770 0.539032
0.004791 0.809113 0.653259
0.001007 0.813049 0.651764
0.216187 0.815063 0.654144
0.424896 0.813049 0.655029
0.565979 0.810120 0.648346
0.682739 0.807220 0.643921
0.788635 0.794434 0.599243
0.920166 0.796082 0.540558
0.127106 0.908661 0.699432
0.223755 0.912201 0.704742
0.370758 0.907654 0.704742
0.513580 0.904358 0.712219
0.607361 0.905121 0.708038
0.704010 0.902863 0.704865
0.788116 0.898804 0.682739
0.888672 0.897675 0.637451
0.135620 0.000000 0.651886
0.199371 0.002533 0.651001
0.311554 0.001404 0.646820
0.457031 0.002899 0.641510
0.589142 0.002014 0.634552
0.709320 0.001404 0.619110
0.825073 0.000885 0.601410
0.933594 0.078583 0.582062
0.137146 0.043640 0.659088
0.201385 0.034393 0.658447
0.312469 0.006317 0.657196
0.456787 0.001892 0.657684
0.601929 0.005066 0.647461
0.712738 0.009491 0.626312
0.825317 0.122467 0.600250
0.937653 0.183685 0.583832
0.094910 0.194794 0.668457
0.181793 0.191254 0.666321
0.308533 0.197723 0.672882
0.459717 0.198730 0.666565
0.610016 0.232483 0.660095
0.724243 0.255646 0.640106
0.828339 0.303467 0.622528
0.928406 0.321808 0.598877
0.000000 0.345337 0.687531
0.004791 0.348114 0.690308
0.267944 0.373779 0.688690
0.448547 0.390869 0.689056
0.605713 0.423767 0.677704
0.729675 0.447937 0.664520
0.822388 0.477295 0.643005
0.927765 0.455658 0.605194
0.000000 0.542450 0.697784
0.001892 0.540436 0.693481
0.151428 0.545868 0.695892
0.383667 0.554718 0.692474
0.595337 0.584595 0.699829
0.722321 0.610138 0.691833
0.820251 0.606354 0.667175
0.921326 0.566498 0.623810
0.007843 0.693878 0.719940
0.005432 0.695251 0.719696
0.217712 0.698792 0.723846
0.411499 0.704620 0.726746
0.580658 0.716003 0.724365
0.750153 0.731689 0.734222
0.831635 0.716003 0.702606
0.932190 0.698181 0.662628
0.000885 0.813049 0.755219
0.031250 0.813049 0.744080
0.261353 0.812531 0.748535
0.424408 0.813416 0.745361
0.583191 0.813049 0.742950
0.727783 0.813904 0.743591
0.822388 0.804321 0.717407
0.939911 0.801147 0.689819
0.184204 0.911194 0.783691
0.243134 0.909546 0.784058
0.338379 0.911591 0.775208
0.460571 0.906128 0.772308
0.600769 0.907776 0.774689
0.726776 0.908295 0.776855
0.808990 0.902985 0.768494
0.898926 0.900818 0.733337
0.255280 0.000000 0.775574
0.290436 0.002533 0.776093
0.383667 0.000000 0.775848
0.506256 0.000000 0.776855
0.638458 0.002014 0.771912
0.762695 0.000000 0.763702
0.870972 0.004791 0.748535
0.951416 0.145752 0.719940
0.252625 0.003418 0.786102
0.298920 0.000000 0.783569
0.384827 0.001892 0.785828
0.514099 0.000000 0.785583
0.648590 0.000000 0.782806
0.773315 0.014679 0.770905
0.876404 0.085022 0.751556
0.954834 0.227966 0.722961
0.236572 0.176575 0.795593
0.284119 0.176971 0.787994
0.380646 0.174561 0.787476
0.506134 0.174683 0.788879
0.642395 0.208221 0.784576
0.770172 0.266907 0.779510
0.874756 0.294617 0.763824
0.948029 0.364685 0.734344
0.169037 0.354828 0.795837
0.236969 0.357086 0.801392
0.354858 0.360901 0.798859
0.492096 0.373810 0.801880
0.631256 0.401764 0.798492
0.763092 0.450714 0.779755
0.863129 0.466400 0.771179
0.933716 0.501831 0.744080
0.000000 0.516907 0.801270
0.003540 0.517548 0.798859
0.252106 0.525757 0.800385
0.450714 0.543457 0.805695
0.606201 0.561951 0.803162
0.751038 0.593567 0.799377
0.853271 0.612030 0.785583
0.926758 0.627594 0.766602
0.003418 0.669342 0.813416
0.008606 0.673004 0.805054
0.237701 0.670349 0.815948
0.405029 0.678314 0.811523
0.564484 0.687561 0.807098
0.740936 0.705627 0.820374
0.854797 0.727783 0.816711
0.932068 0.720825 0.790649
0.183319 0.792542 0.825684
0.244415 0.790894 0.832275
0.342712 0.789520 0.832642
0.470093 0.797974 0.834167
0.603180 0.796326 0.833923
0.737000 0.805206 0.835175
0.861847 0.824799 0.845306
0.936615 0.809113 0.818604
0.266815 0.908295 0.872223
0.309052 0.910706 0.864014
0.376984 0.907013 0.865173
0.481598 0.910187 0.861755
0.592041 0.909821 0.859589
0.719543 0.912323 0.856689
0.839966 0.905640 0.851501
0.914734 0.901215 0.824432
0.375336 0.000000 0.908295
0.404175 0.000000 0.904755
0.475006 0.000000 0.902222
0.575592 0.000000 0.903473
0.690460 0.003540 0.902863
0.809387 0.003540 0.897919
0.915131 0.056061 0.883484
0.999237 0.153442 0.876923
0.375854 0.000000 0.905243
0.403931 0.000366 0.904480
0.470215 0.000366 0.902588
0.575714 0.001007 0.905640
0.688049 0.000000 0.901947
0.814697 0.055542 0.896393
0.922852 0.184937 0.890839
1.000000 0.234924 0.871216
0.367493 0.168243 0.913208
0.393036 0.166840 0.906250
0.467163 0.164307 0.903229
0.566589 0.157990 0.912842
0.684906 0.195953 0.900452
0.806213 0.273621 0.901215
0.910706 0.340271 0.891602
0.993164 0.366089 0.873230
0.330444 0.356079 0.912598
0.367126 0.354553 0.911194
0.445801 0.361145 0.912720
0.550903 0.368591 0.910553
0.670471 0.387970 0.910706
0.791168 0.438080 0.900055
0.895905 0.485626 0.891724
0.985962 0.499420 0.881592
0.239563 0.515503 0.914612
0.302948 0.523865 0.913605
0.399384 0.531708 0.917145
0.512573 0.532074 0.913361
0.639496 0.547028 0.911835
0.772675 0.573975 0.908417
0.888550 0.611542 0.897919
0.975342 0.619507 0.884766
0.131836 0.659729 0.913971
0.200134 0.657196 0.920959
0.303589 0.659729 0.911072
0.457306 0.661469 0.915985
0.611023 0.674774 0.917542
0.747772 0.688690 0.911835
0.871735 0.710571 0.909668
0.966095 0.724854 0.897522
0.276550 0.781677 0.928284
0.310181 0.778992 0.926880
0.381531 0.778259 0.922821
0.476776 0.779144 0.922333
0.586487 0.779144 0.921204
0.706909 0.784332 0.915131
0.860596 0.800751 0.917023
0.959137 0.824036 0.922974
0.405945 0.881226 0.943573
0.430481 0.884247 0.943573
0.471710 0.885132 0.940674
0.543457 0.883118 0.941925
0.633545 0.887543 0.937622
0.738007 0.888062 0.940308
0.837311 0.903870 0.935120
0.952942 0.928284 0.936493
